!!!!SEGMENT: s-uu--vok-mus-i-hs-21-15_forster-kaspar--credo-quod-redemptor.krn
!!!cenid: 16xx:1700
!!!COM: Förster, Kaspar
!!!COM-rismID: pe30006147
!!!CDT: ~1616-1673/02/02
!!!CNT: German
!!!OTL: Credo quod redemptor
!!!PDT: 1665
!!!AGN:
!!!SMS-siglum: S-Uu
!!!SMS-shelfmark: Vok. mus. i hs. 21:15
!!!SMS-shelfwork: W
!!!SMS-variant:
!!!SMS-altvar:
!!!NIFC-rismSourceID: 190008713
!!!NIFC-rismChildID: 190008713
!!!NIFC-islandoraID: none
!!!URL-pdf-islandora:
!!!URL-scan: https://www2.musik.uu.se/duben/presentationSource1.php?Select_Dnr=819 @EN{Scan on Academica} @PL{Skany w zewnętrznej bibliotece cyfrowej}
!!!IIIF:
!!!ONB-nifc: UWAGA: poszczególne partie dostępne po kliknięciu w „browse part”. Informacje nt stron tytułowych w opisie na stronie lub na RISM.
!!!AIN: 1 alto 1 organ 1 tenor 2 violn
!!!key: c:dor
**kern	**fba	**dynam	**kern	**dynam	**kern	**dynam	**kern	**text	**kern	**text	**dynam
*part5	*part5	*part5	*part4	*part4	*part3	*part3	*part2	*part2	*part1	*part1	*part1
*staff5	*	*	*staff4	*	*staff3	*	*staff2	*staff2	*staff1	*staff1	*
*I"Organo	*	*	*I"Violino II	*	*I"Violino Imo	*	*I"Tenore	*	*I"Alto	*	*
*I'Org.	*	*	*I'Vn II	*	*I'Vn I	*	*I'T.	*	*I'A.	*	*
*Iorgan	*	*	*Ivioln	*	*Ivioln	*	*Itenor	*	*Ialto	*	*
*ICklav	*	*	*ICstr	*	*ICstr	*	*ICvox	*	*ICvox	*	*
*IGcont	*	*	*	*	*	*	*	*	*	*	*
*clefF4	*	*	*clefG2	*	*clefG2	*	*clefC4	*	*clefC3	*	*
*k[b-]	*	*	*k[b-]	*	*k[b-]	*	*k[b-]	*	*k[b-]	*	*
*c:dor	*	*	*c:dor	*	*c:dor	*	*c:dor	*	*c:dor	*	*
*M2/1	*	*	*M2/1	*	*M2/1	*	*M2/1	*	*M2/1	*	*
*met(C|)	*	*	*met(C|)	*	*met(C|)	*	*met(C|)	*	*met(C|)	*	*met(C|)
=1-	=1-	=1-	=1-	=1-	=1-	=1-	=1-	=1-	=1-	=1-	=1-
!LO:TX:b:t=Credo Qúod Redemptor	!	!	!LO:TX:b:t=Credo	!	!LO:TX:b:t=Credo	!	!	!	!LO:TX:a:t=4	!	!
[1C	-	.	4r	.	4r	.	0r	.	0r	.	.
.	.	.	2ee-X\	.	2gg\	.	.	.	.	.	.
!	!	!	!LO:TX:t=P:problem:kreska pseudotaktowa	!	!LO:TX:t=P:problem:kreska pseudotaktowa	!	!	!	!	!	!
.	.	.	4cc\	.	4ee-X\	.	.	.	.	.	.
!LO:TX:t=P:problem:kreska pseudotaktowa	!	!	!	!	!	!	!	!	!	!	!
1C]	-	.	8r	.	8r	.	.	.	.	.	.
.	.	.	4ee-\	.	4gg\	.	.	.	.	.	.
.	.	.	8dd\	.	8ff\	.	.	.	.	.	.
.	.	.	8cc\L	.	8ee-X\L	.	.	.	.	.	.
!	!	!	!LO:N:acc=#	!	!	!	!	!	!	!	!
.	.	.	8bn\	.	8dd\	.	.	.	.	.	.
.	.	.	8cc\	.	8ee-X\	.	.	.	.	.	.
!	!	!	!LO:TX:t=P:problem:kreska pseudotaktowa	!	!LO:TX:t=P:problem:kreska pseudotaktowa	!	!	!	!	!	!
.	.	.	8a\J	.	8cc\J	.	.	.	.	.	.
=2-	=2-	=2-	=2-	=2-	=2-	=2-	=2-	=2-	=2-	=2-	=2-
!	!	!	!LO:N:acc=#	!	!	!	!	!	!	!	!
2.G\	#	.	2bn/	.	2dd\	.	0r	.	0r	.	.
.	.	.	4b/	.	4dd\	.	.	.	.	.	.
!	!	!	!LO:TX:t=P:problem:kreska pseudotaktowa	!	!	!	!	!	!	!	!
4E-X\	.	.	4g/	.	4gg\	.	.	.	.	.	.
4D/	5:6	.	8a/L	.	4.ff\	.	.	.	.	.	.
!	!	!	!LO:N:acc=#	!	!	!	!	!	!	!	!
.	.	.	8bn/J	.	.	.	.	.	.	.	.
4C/	4:3	.	4cc\	.	.	.	.	.	.	.	.
.	.	.	.	.	8ee-X\	.	.	.	.	.	.
4F\	6 5	.	4.cc\	.	4.dd\	.	.	.	.	.	.
!LO:TX:t=P:problem:kreska pseudotaktowa	!	!	!	!	!	!	!	!	!	!	!
4G\	4:3 #	.	.	.	.	.	.	.	.	.	.
!	!	!	!LO:N:acc=#	!	!LO:TX:t=P:problem:kreska pseudotaktowa	!	!	!	!	!	!
.	.	.	8bn/	.	8dd\	.	.	.	.	.	.
=3-	=3-	=3-	=3-	=3-	=3-	=3-	=3-	=3-	=3-	=3-	=3-
1C	-	.	2cc\	.	2ee-X\	.	4r	.	4r	.	.
.	.	.	.	.	.	.	2e-X\	Cre-	2g\	Cre-	.
.	.	.	1r	.	1r	.	.	.	.	.	.
!	!	!	!	!	!	!	!LO:TX:t=P:problem:kreska pseudotaktowa	!	!LO:TX:t=P:problem:kreska pseudotaktowa	!	!
.	.	.	.	.	.	.	4c\	-do	4e-X\	-do	.
2.C/	-	.	.	.	.	.	2r	.	8g\	qúod	.
.	.	.	.	.	.	.	.	.	8f\	re-	.
.	.	.	.	.	.	.	.	.	8e-\	-dem-	.
.	.	.	.	.	.	.	.	.	8d\	-ptor	.
!	!	!	!	!	!	!	!	!	!LO:TX:t=P:problem:kreska pseudotaktowa	!	!
.	.	.	2r	.	2r	.	8c\	qúod	2e-X\	Me-	.
.	.	.	.	.	.	.	8B-\	re-	.	.	.
!LO:TX:t=P:problem:kreska pseudotaktowa	!	!	!	!	!	!	!	!	!	!	!
4C/	6:5	.	.	.	.	.	8A-X/	-dem-	.	.	.
.	.	.	.	.	.	.	8G/	-ptor	.	.	.
=4-	=4-	=4-	=4-	=4-	=4-	=4-	=4-	=4-	=4-	=4-	=4-
!	!	!	!LO:TX:t=P:problem:kreska pseudotaktowa	!	!	!	!	!	!	!	!
2FF/	6:5 - 3	.	1r	.	2r	.	4.A-X/	me-	(8d-X\L	-ús	.
.	.	.	.	.	.	.	.	.	8c\J)	.	.
.	.	.	.	.	.	.	.	.	(2c/	vi-	.
.	.	.	.	.	.	.	8A-/	-ús	.	.	.
!	!	!	!	!	!	!	!LO:TX:t=P:problem:kreska pseudotaktowa	!	!	!	!
2GG/	4:3 #	.	.	.	8gg\L	.	2G/	vi-	.	.	.
.	.	.	.	.	8ff\	.	.	.	.	.	.
!	!	!	!	!	!	!	!	!	!LO:N:acc=#	!	!
.	.	.	.	.	8ee-X\	.	.	.	4Bn/)	.	.
!	!	!	!	!	!LO:TX:t=P:problem:kreska pseudotaktowa	!	!	!	!	!	!
.	.	.	.	.	8dd\J	.	.	.	.	.	.
2C/	-:#	.	8cc/L	.	4ee-X\	.	2G/	-úit	2c/	-úit	.
.	.	.	8b-y/J	.	.	.	.	.	.	.	.
!	!	!	!	!	!LO:N:acc=#	!	!	!	!	!	!
.	.	.	8a-X/L	.	4een\	.	.	.	.	.	.
.	.	.	8g/J	.	.	.	.	.	.	.	.
!LO:TX:t=P:problem:kreska pseudotaktowa	!	!	!	!	!	!	!	!	!LO:TX:t=P:problem:kreska pseudotaktowa	!	!
2FF/	-:#	.	4a-X/	.	4.ff\	.	2r	.	2r	.	.
!	!	!	!LO:TX:t=P:problem:kreska pseudotaktowa	!	!	!	!	!	!	!	!
!	!	!	!LO:SIC:v:t=custos b	!	!	!	!	!	!	!	!
!	!	!	!LO:N:acc=#	!	!	!	!	!	!	!	!
.	.	.	4an/	.	.	.	.	.	.	.	.
!	!	!	!	!	!LO:TX:t=P:problem:kreska pseudotaktowa	!	!	!	!	!	!
!	!	!	!	!	!LO:SIC:v:t=custos dd	!	!	!	!	!	!
.	.	.	.	.	8ee-X\	.	.	.	.	.	.
!	!	!	!LO:LB:g=original	!	!LO:LB:g=original	!	!	!	!	!	!
=5-	=5-	=5-	=5-	=5-	=5-	=5-	=5-	=5-	=5-	=5-	=5-
2BB-/	.	.	2.b-/	.	2dd\	.	1r	.	8b-X\	qúod	.
.	.	.	.	.	.	.	.	.	8a-X\	re-	.
.	.	.	.	.	.	.	.	.	8g\	-dem-	.
.	.	.	.	.	.	.	.	.	8f\	-ptor	.
1C	-:6:5 3:4:3	.	.	.	2cc\	.	.	.	8eny\	me-	.
.	.	.	.	.	.	.	.	.	8c/	-ús	.
!	!	!	!LO:TX:t=P:problem:kreska pseudotaktowa	!	!	!	!	!	!	!	!
.	.	.	4a-X/	.	.	.	.	.	(2f\	vi-	.
.	.	.	4.g/	.	2cc\	.	2r	.	.	.	.
.	.	.	.	.	.	.	.	.	4e\)	.	.
.	.	.	8g/	.	.	.	.	.	.	.	.
!	!	!	!	!	!	!	!	!	!LO:SIC:v:t=custos f	!	!
1FF/	-	.	8a-X/L	.	4cc\	.	4r	.	4f\	-úit	.
.	.	.	8f/J	.	.	.	.	.	.	.	.
!	!	!	!LO:TX:t=P:problem:kreska pseudotaktowa	!	!	!	!	!	!LO:TX:t=P:problem:kreska pseudotaktowa	!	!
.	.	.	[4ff\	.	8ccc\L	.	2c\	Cre-	4r	.	.
!	!	!	!	!	!LO:TX:t=P:problem:kreska pseudotaktowa	!	!	!	!	!	!
.	.	.	.	.	8bb-\J	.	.	.	.	.	.
!	!	!	!	!	!	!	!	!	!LO:LB:g=original	!	!
=6-	=6-	=6-	=6-	=6-	=6-	=6-	=6-	=6-	=6-	=6-	=6-
.	.	.	8ffL]	.	8aa-X\L	.	.	.	0r	.	.
.	.	.	8ee-X\	.	8gg\	.	.	.	.	.	.
.	.	.	8dd\	.	8ff\	.	4c\	-do	.	.	.
.	.	.	8cc\J	.	8ee-X\J	.	.	.	.	.	.
!LO:TX:t=P:problem:kreska pseudotaktowa	!	!	!	!	!	!	!	!	!	!	!
2GG/	4:3 #	.	4.g/	.	4.dd\	.	(4c\	Cre-	.	.	.
!	!	!	!	!	!	!	!LO:TX:t=P:problem:kreska pseudotaktowa	!	!	!	!
!	!	!	!	!	!	!	!LO:N:acc=#	!	!	!	!
.	.	.	.	.	.	.	4Bn\)	.	.	.	.
!	!	!	!LO:TX:t=P:problem:kreska pseudotaktowa	!	!LO:TX:t=P:problem:kreska pseudotaktowa	!	!	!	!	!	!
.	.	.	8f/	.	8dd\	.	.	.	.	.	.
[2C/	-	.	2e-X/	.	4cc\	.	4c\	-do	.	.	.
.	.	.	.	.	8cc\L	.	8e-X\	qúod	.	.	.
.	.	.	.	.	8b-\J	.	8d\	re-	.	.	.
!LO:TX:t=P:problem:kreska pseudotaktowa	!	!	!	!	!	!	!	!	!	!	!
!LO:SIC:v:t=custos D	!	!	!	!	!	!	!	!	!	!	!
2C/]	6:5 -	.	2ee-X\	.	8a/L	.	8c\	-dem-	.	.	.
.	.	.	.	.	8g/J	.	8B-y\	-ptor	.	.	.
.	.	.	.	.	2g/	.	8B-\	me-	.	.	.
!	!	!	!	!	!	!	!LO:TX:t=P:problem:kreska pseudotaktowa	!	!	!	!
.	.	.	.	.	.	.	8Any/	-ús	.	.	.
!LO:LB:g=original	!	!	!	!	!	!	!LO:LB:g=original	!	!	!	!
=7-	=7-	=7-	=7-	=7-	=7-	=7-	=7-	=7-	=7-	=7-	=7-
2D/	4#r	.	4.dd\	.	.	.	2A/	vi-	0r	.	.
.	.	.	.	.	4f#X/	.	.	.	.	.	.
.	.	.	8cc\	.	.	.	.	.	.	.	.
!LO:TX:t=P:problem:kreska pseudotaktowa	!	!	!	!	!	!	!	!	!	!	!
[2GG/	6-r:5	.	4b-/	.	4g/	.	4G/	-úit	.	.	.
.	.	.	8gg\L	.	8bb-\L	.	1r	.	.	.	.
!	!	!	!LO:TX:t=P:problem:kreska pseudotaktowa	!	!LO:TX:t=P:problem:kreska pseudotaktowa	!	!	!	!	!	!
.	.	.	8ff\J	.	8aa-X\J	.	.	.	.	.	.
2GG/]	.	.	8ee-X\L	.	8gg\L	.	.	.	.	.	.
.	.	.	8dd\J	.	8ff\J	.	.	.	.	.	.
.	.	.	8dd\L	.	8ff\L	.	.	.	.	.	.
.	.	.	16ee-X\L	.	16gg\L	.	.	.	.	.	.
.	.	.	16dd\JJ	.	16ff\JJ	.	.	.	.	.	.
4AA-X/	.	.	8cc\L	.	8ee-X\L	.	.	.	.	.	.
.	.	.	8dd\J	.	8ff\J	.	.	.	.	.	.
!	!	!	!	!	!LO:TX:t=P:problem:kreska pseudotaktowa	!	!	!	!	!	!
8GG/L	6	.	2ee-X\	.	4gg\	.	4r	.	.	.	.
8AA-X/J	.	.	.	.	.	.	.	.	.	.	.
=8-	=8-	=8-	=8-	=8-	=8-	=8-	=8-	=8-	=8-	=8-	=8-
2BB-/	4:3	.	.	.	4.ff\	.	2r	.	2r	.	.
.	.	.	4dd\	.	.	.	.	.	.	.	.
.	.	.	.	.	8ff\	.	.	.	.	.	.
!LO:TX:t=P:problem:kreska pseudotaktowa	!	!	!	!	!	!	!	!	!	!	!
2E-X\	.	.	4ee-X\	.	4gg\	.	4r	.	4r	.	.
!	!	!	!LO:TX:t=P:problem:kreska pseudotaktowa	!	!	!	!	!	!	!	!
!	!	!	!LO:SIC:v:t=custos b	!	!LO:TX:t=P:problem:kreska pseudotaktowa	!	!	!	!	!	!
.	.	.	4r	.	4r	.	8e-X\	Qúod	8g\	Qúod	.
!	!	!	!	!	!	!	!LO:TX:t=P:problem:kreska pseudotaktowa	!	!LO:TX:t=P:problem:kreska pseudotaktowa	!	!
.	.	.	.	.	.	.	8c\	re-	8e-X\	re-	.
!	!	!	!LO:LB:g=original	!	!LO:LB:g=original	!	!	!	!	!	!
2BB-/	.	.	4r	.	4r	.	8d\	-dem-	8f\	-dem-	.
.	.	.	.	.	.	.	8d\	-ptor	8f\	-ptor	.
.	.	.	8b-/L	.	8dd\L	.	2r	.	4r	.	.
.	.	.	8g/J	.	8b-\J	.	.	.	.	.	.
2F\	-	.	8a-X/L	.	8cc\L	.	.	.	4r	.	.
.	.	.	8a-/J	.	8cc\J	.	.	.	.	.	.
*	*	*	*	*	*	*	*	*ij	*	*ij	*
!	!	!	!LO:TX:t=P:problem:kreska pseudotaktowa	!	!LO:TX:t=P:problem:kreska pseudotaktowa	!	!	!	!	!	!
.	.	.	4r	.	4r	.	8f\	Qúod	8a-X\	Qúod	.
!	!	!	!	!	!	!	!LO:TX:t=P:problem:kreska pseudotaktowa	!	!LO:TX:t=P:problem:kreska pseudotaktowa	!	!
.	.	.	.	.	.	.	8d\	re-	8f\	re-	.
=9-	=9-	=9-	=9-	=9-	=9-	=9-	=9-	=9-	=9-	=9-	=9-
2C/	-	.	4r	.	4r	.	8e-X\	-dem-	8g\	-dem-	.
.	.	.	.	.	.	.	8e-\	-ptor	8g\	-ptor	.
*	*	*	*	*	*	*	*	*Xij	*	*Xij	*
.	.	.	8cc\L	.	8ee-X\L	.	4r	.	4r	.	.
.	.	.	8any\J	.	8cc\J	.	.	.	.	.	.
!LO:TX:t=P:problem:kreska pseudotaktowa	!	!	!LO:N:acc=#	!	!	!	!LO:TX:t=P:problem:kreska pseudotaktowa	!	!	!	!
2GG/	#	.	8bn/L	.	8dd\L	.	2r	.	4r	.	.
.	.	.	8b/J	.	8dd\J	.	.	.	.	.	.
*	*	*	*	*	*	*	*	*	*	*ij	*
!	!	!	!	!	!LO:TX:t=P:problem:kreska pseudotaktowa	!	!	!	!	!	!
.	.	.	4b/	.	4dd\	.	.	.	8g\	Qúod	.
!	!	!	!	!	!	!	!	!	!LO:TX:t=P:problem:kreska pseudotaktowa	!	!
.	.	.	.	.	.	.	.	.	8f\	re-	.
2C/	-	.	2cc\	.	4ee-X\	.	4r	.	8e-X\	-dem-	.
.	.	.	.	.	.	.	.	.	8c/	-ptor	.
*	*	*	*	*	*	*	*	*ij	*	*Xij	*
.	.	.	.	.	8ee-\L	.	8c\	Qúod	4r	.	.
.	.	.	.	.	8dd\J	.	8B-\	re-	.	.	.
2F\	-	.	4r	.	2cc\	.	8A-X/	-dem-	4r	.	.
.	.	.	.	.	.	.	8F/	-ptor	.	.	.
*	*	*	*	*	*	*	*	*Xij	*	*	*
!	!	!	!LO:TX:t=P:problem:kreska pseudotaktowa	!	!	!	!	!	!	!	!
.	.	.	4f/	.	.	.	8f\	Qúod	8a-X\	qúod	.
!	!	!	!	!	!	!	!LO:TX:t=P:problem:kreska pseudotaktowa	!	!LO:TX:t=P:problem:kreska pseudotaktowa	!	!
!	!	!	!	!	!	!	!LO:SIC:v:t=custos d	!	!	!	!
.	.	.	.	.	.	.	8e-X\	re-	8g\	re-	.
!	!	!	!	!	!	!	!LO:LB:g=original	!	!	!	!
=10-	=10-	=10-	=10-	=10-	=10-	=10-	=10-	=10-	=10-	=10-	=10-
2F\	- 6:5	.	2a-X/	.	2ff\	.	4.d\	-dem-	4.f\	-dem-	.
!	!	!	!	!	!	!	!	!	!LO:SIC:v:t=custos d	!	!
.	.	.	.	.	.	.	8c\	-ptor	8e-X\	-ptor	.
!	!	!	!	!	!	!	!LO:N:acc=#	!	!LO:LB:g-original	!	!
4G\	#	.	4g/	.	4r	.	4Bn\	me-	4dny\	me-	.
!LO:TX:t=P:problem:kreska pseudotaktowa	!	!	!	!	!LO:TX:t=P:problem:kreska pseudotaktowa	!	!	!	!LO:TX:t=P:problem:kreska pseudotaktowa	!	!
4F\	- 6 5	.	4a-X/	.	4ff\	.	4c\	-ús	4d\	-ús	.
1G	4#r	.	1g	.	2dd\	.	(2c\	vi-	1d	vi-	.
!	!	!	!	!	!	!	!LO:N:acc=#	!	!	!	!
.	.	.	.	.	4.gg\	.	2Bn\)	.	.	.	.
.	.	.	.	.	8ff\	.	.	.	.	.	.
=11-	=11-	=11-	=11-	=11-	=11-	=11-	=11-	=11-	=11-	=11-	=11-
!LO:TX:t=P:problem:kreska pseudotaktowa	!	!	!LO:TX:t=P:problem:kreska pseudotaktowa	!	!LO:TX:t=P:problem:kreska pseudotaktowa	!	!LO:TX:t=P:problem:kreska pseudotaktowa	!	!LO:TX:t=P:problem:kreska pseudotaktowa	!	!
1C;	.	.	1g;	.	1eeny;	.	1c;	-úit	1eny;	-úit	.
!	!	!	!LO:TX:a:t=4	!	!LO:TX:a:t=4	!	!LO:TX:b:t=18	!	!	!	!
1C	-	.	1r	.	1r	.	1r	.	4r	.	.
.	.	.	.	.	.	.	.	.	2c/	Et	.
.	.	.	.	.	.	.	.	.	4c/	no-	.
=12-	=12-	=12-	=12-	=12-	=12-	=12-	=12-	=12-	=12-	=12-	=12-
2C/	6 -	.	0r	.	0r	.	0r	.	2a-X\	-uiſ-	.
!LO:TX:t=P:problem:kreska pseudotaktowa	!	!	!	!	!	!	!	!	!	!	!
!LO:SIC:v:t=custos Es	!	!	!	!	!	!	!	!	!	!	!
2D/	5	.	.	.	.	.	.	.	4.a-\	-ſi-	.
!	!	!	!	!	!	!	!	!	!LO:TX:t=P:problem:kreska pseudotaktowa	!	!
.	.	.	.	.	.	.	.	.	8g\	-mo	.
!LO:LB:g=original	!	!	!	!	!	!	!	!	!	!	!
1E-X	.	.	.	.	.	.	.	.	4g\	di-	.
.	.	.	.	.	.	.	.	.	4g\	-e	.
.	.	.	.	.	.	.	.	.	8r	.	.
.	.	.	.	.	.	.	.	.	16b-\LL	re-	.
.	.	.	.	.	.	.	.	.	16a-\JJ	.	.
.	.	.	.	.	.	.	.	.	16g\LL	.	.
.	.	.	.	.	.	.	.	.	16f\	.	.
.	.	.	.	.	.	.	.	.	16e-X\	.	.
!	!	!	!	!	!	!	!	!	!LO:TX:t=P:problem:kreska pseudotaktowa	!	!
.	.	.	.	.	.	.	.	.	16d\JJ	.	.
=13-	=13-	=13-	=13-	=13-	=13-	=13-	=13-	=13-	=13-	=13-	=13-
2A-X\	.	.	1r	.	1r	.	0r	.	16c/	-ſúr-	.
.	.	.	.	.	.	.	.	.	16c/	-gam	.
.	.	.	.	.	.	.	.	.	16cc\LL	re-	.
.	.	.	.	.	.	.	.	.	16b-\JJ	.	.
.	.	.	.	.	.	.	.	.	16a-X\LL	.	.
.	.	.	.	.	.	.	.	.	16g\	.	.
.	.	.	.	.	.	.	.	.	16f\	.	.
.	.	.	.	.	.	.	.	.	16e-X\JJ	.	.
4B-\	.	.	.	.	.	.	.	.	4d\	-ſúr-	.
!LO:TX:t=P:problem:kreska pseudotaktowa	!	!	!	!	!	!	!	!	!	!	!
4A-X\	.	.	.	.	.	.	.	.	8e-X\	-gam	.
!	!	!	!	!	!	!	!	!	!LO:TX:t=P:problem:kreska pseudotaktowa	!	!
!	!	!	!	!	!	!	!	!	!LO:SIC:v:t=custos e	!	!
.	.	.	.	.	.	.	.	.	8e-\	re-	.
!	!	!	!	!	!	!	!	!	!LO:LB:g-original	!	!
4B-\	.	.	2r	.	2r	.	.	.	(4.e-\	-ſúr-	.
4BB-/	4:3	.	.	.	.	.	.	.	.	.	.
.	.	.	.	.	.	.	.	.	8d\)	.	.
2E-X\	4:3	.	8r	.	8r	.	.	.	2e-X\	-gam	.
.	.	.	16gg\LL	.	16bb-\LL	.	.	.	.	.	.
.	.	.	16ff\JJ	.	16aa-X\JJ	.	.	.	.	.	.
.	.	.	16ee-X\LL	.	16gg\LL	.	.	.	.	.	.
.	.	.	16dd\	.	16ff\	.	.	.	.	.	.
.	.	.	16cc\	.	16ee-X\	.	.	.	.	.	.
!	!	!	!	!	!LO:TX:t=P:problem:kreska pseudotaktowa	!	!	!	!	!	!
!	!	!	!LO:TX:t=P:problem:kreska pseudotaktowa	!	!LO:SIC:v:t=custos cc	!	!	!	!	!	!
.	.	.	16b-y\JJ	.	16dd\JJ	.	.	.	.	.	.
!	!	!	!	!	!LO:LB:g=original	!	!	!	!	!	!
=14-	=14-	=14-	=14-	=14-	=14-	=14-	=14-	=14-	=14-	=14-	=14-
!	!	!	!LO:TX:a:t=P:problem:mixed beam	!	!LO:TX:a:t=P:problem:mixed beam	!	!	!	!LO:TX:t=P:problem:kreska pseudotaktowa	!	!
2F\	-	.	16a-X/LL	.	16cc/LL	.	0r	.	0r	.	.
.	.	.	16f/	.	16a-X/	.	.	.	.	.	.
.	.	.	16aa-X\	.	16ccc\	.	.	.	.	.	.
.	.	.	16gg\JJ	.	16bb-\JJ	.	.	.	.	.	.
.	.	.	16ff\LL	.	16aa-X\LL	.	.	.	.	.	.
.	.	.	16ee-X\	.	16gg\	.	.	.	.	.	.
.	.	.	16dd\	.	16ff\	.	.	.	.	.	.
!	!	!	!LO:SIC:v:t=custos b	!	!	!	!	!	!	!	!
.	.	.	16cc\JJ	.	16ee-X\JJ	.	.	.	.	.	.
!	!	!	!LO:LB:g=original	!	!	!	!	!	!	!	!
4G\	.	.	8b-\L	.	8dd\L	.	.	.	.	.	.
.	.	.	8b-\	.	8dd\	.	.	.	.	.	.
!LO:TX:t=P:problem:kreska pseudotaktowa	!	!	!	!	!	!	!	!	!	!	!
4F\	.	.	8cc\	.	8ee-X\	.	.	.	.	.	.
!	!	!	!LO:TX:t=P:problem:kreska pseudotaktowa	!	!LO:TX:t=P:problem:kreska pseudotaktowa	!	!	!	!	!	!
.	.	.	8dd\J	.	8ff\J	.	.	.	.	.	.
2E-X\	6:5	.	8ee-X\L	.	8gg\L	.	.	.	.	.	.
.	.	.	8dd\	.	8ff\	.	.	.	.	.	.
.	.	.	8cc\	.	8ee-X\	.	.	.	.	.	.
.	.	.	8b-\J	.	8dd\J	.	.	.	.	.	.
2F\	4:3	.	4.b-/	.	4.cc\	.	.	.	.	.	.
.	.	.	8any/	.	8cc\	.	.	.	.	.	.
=15-	=15-	=15-	=15-	=15-	=15-	=15-	=15-	=15-	=15-	=15-	=15-
2BB-/	.	.	2b-/	.	2dd\	.	0r	.	4r	.	.
.	.	.	.	.	.	.	.	.	8d\	et	.
.	.	.	.	.	.	.	.	.	8d\	no-	.
!LO:TX:t=P:problem:kreska pseudotaktowa	!	!	!	!	!	!	!	!	!	!	!
2E-X\	7:6	.	1r	.	1r	.	.	.	4d\	-úiſ-	.
.	.	.	.	.	.	.	.	.	8d\	-ſi-	.
!	!	!	!	!	!	!	!	!	!LO:TX:t=P:problem:kreska pseudotaktowa	!	!
.	.	.	.	.	.	.	.	.	8c/	-mo	.
4.D/	.	.	.	.	.	.	.	.	4d\	di-	.
.	.	.	.	.	.	.	.	.	4d\	-e	.
8C/	.	.	.	.	.	.	.	.	.	.	.
!LO:TX:t=P:problem:kreska pseudotaktowa	!	!	!LO:TX:t=P:problem:kreska pseudotaktowa	!	!LO:TX:t=P:problem:kreska pseudotaktowa	!	!	!	!	!	!
2BB-/	.	.	2r	.	2r	.	.	.	4r	.	.
.	.	.	.	.	.	.	.	.	16b-X\LL	re-	.
.	.	.	.	.	.	.	.	.	16any\J	.	.
!	!	!	!	!	!	!	!	!	!LO:TX:t=P:problem:kreska pseudotaktowa	!	!
.	.	.	.	.	.	.	.	.	8g\J	.	.
=16-	=16-	=16-	=16-	=16-	=16-	=16-	=16-	=16-	=16-	=16-	=16-
4C/	.	.	2r	.	2r	.	0r	.	(4.g\	-ſúr-	.
4D/	5#r	.	.	.	.	.	.	.	.	.	.
.	.	.	.	.	.	.	.	.	8f#X\)	.	.
4GG/	.	.	4r	.	4r	.	.	.	4g\	-gam	.
!LO:TX:t=P:problem:kreska pseudotaktowa	!	!	!	!	!	!	!	!	!LO:TX:t=P:problem:kreska pseudotaktowa	!	!
4BB-/	6	.	4dd\	.	16bb-\LL	.	.	.	4r	.	.
.	.	.	.	.	16aany\J	.	.	.	.	.	.
.	.	.	.	.	8gg\J	.	.	.	.	.	.
4C/	-	.	4ee-X\	.	4.gg\	.	.	.	2r	.	.
4D/	4:3 #	.	8dd\L	.	.	.	.	.	.	.	.
.	.	.	8cc\J	.	8ff#X\	.	.	.	.	.	.
!LO:TX:t=P:problem:kreska pseudotaktowa	!	!	!	!	!	!	!	!	!	!	!
!LO:SIC:v:t=custos AA	!	!	!	!	!	!	!	!	!	!	!
2GG/	.	.	4b-/	.	4gg\	.	.	.	8r	.	.
.	.	.	.	.	.	.	.	.	16b-X\LL	re-	.
.	.	.	.	.	.	.	.	.	16a-X\JJ	.	.
.	.	.	4r	.	4r	.	.	.	16g\LL	.	.
.	.	.	.	.	.	.	.	.	16fny\	.	.
.	.	.	.	.	.	.	.	.	16e-X\	.	.
!	!	!	!	!	!	!	!	!	!LO:TX:t=P:problem:kreska pseudotaktowa	!	!
!	!	!	!	!	!	!	!	!	!LO:SIC:v:t=custos c	!	!
.	.	.	.	.	.	.	.	.	16d\JJ	.	.
!LO:LB:g=original	!	!	!	!	!	!	!	!	!LO:LB:g=original	!	!
=17-	=17-	=17-	=17-	=17-	=17-	=17-	=17-	=17-	=17-	=17-	=17-
!	!	!	!LO:TX:t=P:problem:kreska pseudotaktowa	!	!LO:TX:t=P:problem:kreska pseudotaktowa	!	!	!	!	!	!
2AAny/	-	.	0r	.	0r	.	0r	.	16c/	-ſúr-	.
.	.	.	.	.	.	.	.	.	16c/	-gam	.
.	.	.	.	.	.	.	.	.	16cc\LL	re-	.
.	.	.	.	.	.	.	.	.	16b-X\JJ	.	.
.	.	.	.	.	.	.	.	.	16a-X\LL	.	.
.	.	.	.	.	.	.	.	.	16g\	.	.
.	.	.	.	.	.	.	.	.	16f\	.	.
.	.	.	.	.	.	.	.	.	16e-X\JJ	.	.
!LO:TX:t=P:problem:kreska pseudotaktowa	!	!	!	!	!	!	!	!	!	!	!
2BB-/	.	.	.	.	.	.	.	.	8d\L	-ſúr-	.
.	.	.	.	.	.	.	.	.	16B-y\L	.	.
.	.	.	.	.	.	.	.	.	16c\JJ	.	.
.	.	.	.	.	.	.	.	.	16d\LL	.	.
.	.	.	.	.	.	.	.	.	16e-X\	.	.
.	.	.	.	.	.	.	.	.	16f\	.	.
!	!	!	!	!	!	!	!	!	!LO:TX:t=P:problem:kreska pseudotaktowa	!	!
.	.	.	.	.	.	.	.	.	16g\JJ	.	.
2FF/	-	.	.	.	.	.	.	.	4a-X\	.	.
.	.	.	.	.	.	.	.	.	8a-\	.	.
.	.	.	.	.	.	.	.	.	8g\	-gam	.
4BB-/	6	.	.	.	.	.	.	.	4.g\	re-	.
4C/	.	.	.	.	.	.	.	.	.	.	.
.	.	.	.	.	.	.	.	.	16a-X\LL	-ſúr-	.
!	!	!	!	!	!	!	!	!	!LO:TX:t=P:problem:kreska pseudotaktowa	!	!
.	.	.	.	.	.	.	.	.	16g\JJ	.	.
=18-	=18-	=18-	=18-	=18-	=18-	=18-	=18-	=18-	=18-	=18-	=18-
2FF/	-	.	4r	.	4r	.	1r	.	4f\	-gam	.
.	.	.	4ff\	.	8aa-X\L	.	.	.	2r	.	.
.	.	.	.	.	8gg\J	.	.	.	.	.	.
4BB-/	.	.	4.ff\	.	4.gg\	.	.	.	.	.	.
!LO:TX:t=P:problem:kreska pseudotaktowa	!	!	!	!	!	!	!	!	!	!	!
4C/	.	.	.	.	.	.	.	.	4r	.	.
!	!	!	!LO:TX:t=P:problem:kreska pseudotaktowa	!	!	!	!	!	!	!	!
.	.	.	8eeny\	.	16aa-X\LL	.	.	.	.	.	.
!	!	!	!	!	!LO:TX:t=P:problem:kreska pseudotaktowa	!	!	!	!	!	!
!	!	!	!	!	!LO:SIC:v:t=custos ff	!	!	!	!	!	!
.	.	.	.	.	16gg\JJ	.	.	.	.	.	.
!	!	!	!	!	!LO:LB:g=original	!	!	!	!LO:TX:b:t=13	!	!
2FF/	-	.	4ff\	.	4ffny\	.	1r	.	1r	.	.
.	.	.	8ff\L	.	8aa-X\L	.	.	.	.	.	.
.	.	.	8ee-X\J	.	8gg\J	.	.	.	.	.	.
2BB-/	.	.	4.dd\	.	4.ff\	.	.	.	.	.	.
.	.	.	16cc\LL	.	16ee-X\LL	.	.	.	.	.	.
!	!	!	!LO:TX:t=P:problem:kreska pseudotaktowa	!	!LO:TX:t=P:problem:kreska pseudotaktowa	!	!	!	!	!	!
.	.	.	16dd\JJ	.	16ff\JJ	.	.	.	.	.	.
=19-	=19-	=19-	=19-	=19-	=19-	=19-	=19-	=19-	=19-	=19-	=19-
2GG/	6	.	4ee-X\	.	4gg\	.	0r	.	0r	.	.
.	.	.	8ee-\L	.	8gg\L	.	.	.	.	.	.
!	!	!	!LO:SIC:v:t=custos cc	!	!	!	!	!	!	!	!
.	.	.	8dd\J	.	8ff\J	.	.	.	.	.	.
!	!	!	!LO:LB:g=original	!	!	!	!	!	!	!	!
!LO:TX:t=P:problem:kreska pseudotaktowa	!	!	!	!	!	!	!	!	!	!	!
2AA-X/	.	.	4.cc\	.	4.ee-X\	.	.	.	.	.	.
.	.	.	16b-\LL	.	16dd\LL	.	.	.	.	.	.
!	!	!	!LO:TX:t=P:problem:kreska pseudotaktowa	!	!LO:TX:t=P:problem:kreska pseudotaktowa	!	!	!	!	!	!
.	.	.	16cc\JJ	.	16ee-X\JJ	.	.	.	.	.	.
2FF/	6:5	.	4dd\	.	4.ff\	.	.	.	.	.	.
.	.	.	4cc\	.	.	.	.	.	.	.	.
.	.	.	.	.	8ee-X\	.	.	.	.	.	.
!	!	!	!	!	!LO:TX:t=P:problem:kreska pseudotaktowa	!	!	!	!	!	!
2GG/	4:3 #	.	4.cc\	.	2dd\	.	.	.	.	.	.
!	!	!	!LO:TX:t=P:problem:kreska pseudotaktowa	!	!	!	!	!	!	!	!
!	!	!	!LO:N:acc=#	!	!	!	!	!	!	!	!
.	.	.	8bn/	.	.	.	.	.	.	.	.
=20-	=20-	=20-	=20-	=20-	=20-	=20-	=20-	=20-	=20-	=20-	=20-
2C/	-	.	8cc\L	.	8ee-X\L	.	1r	.	0r	.	.
.	.	.	16ee-X\L	.	16gg\L	.	.	.	.	.	.
.	.	.	16dd\JJ	.	16ff\JJ	.	.	.	.	.	.
.	.	.	(16cc/LL	.	(16ee-X\LL	.	.	.	.	.	.
.	.	.	16b-/)	.	16dd\)	.	.	.	.	.	.
.	.	.	(16a/	.	(16cc\	.	.	.	.	.	.
.	.	.	16g/JJ)	.	16b-\JJ)	.	.	.	.	.	.
!LO:TX:t=P:problem:kreska pseudotaktowa	!	!	!	!	!	!	!	!	!	!	!
2D/	4:3 #	.	4.g/	.	4.any/	.	.	.	.	.	.
.	.	.	8f#X/	.	8a/	.	.	.	.	.	.
!	!	!	!	!	!LO:TX:t=P:problem:# below	!	!	!	!	!	!
!	!	!	!	!	!LO:N:acc=#	!	!	!	!	!	!
[1GG	-	.	2g/	.	2bn/	.	4r	.	.	.	.
.	.	.	.	.	.	.	2G/	Et	.	.	.
.	.	.	2r	.	2r	.	.	.	.	.	.
!	!	!	!	!	!	!	!LO:TX:t=P:problem:kreska pseudotaktowa	!	!	!	!
.	.	.	.	.	.	.	4G/	no-	.	.	.
=21-	=21-	=21-	=21-	=21-	=21-	=21-	=21-	=21-	=21-	=21-	=21-
!	!	!	!	!	!LO:TX:t=P:problem:kreska pseudotaktowa	!	!	!	!	!	!
2GG/]	6 -	.	0r	.	0r	.	2.e-X\	-úiſ-	0r	.	.
!LO:TX:t=P:problem:kreska pseudotaktowa	!	!	!	!	!	!	!	!	!	!	!
2AAny/	5	.	.	.	.	.	.	.	.	.	.
.	.	.	.	.	.	.	8e-\	-ſi-	.	.	.
!	!	!	!	!	!	!	!LO:TX:t=P:problem:kreska pseudotaktowa	!	!	!	!
.	.	.	.	.	.	.	8d\	-mo	.	.	.
1BB-	.	.	.	.	.	.	4d\	di-	.	.	.
.	.	.	.	.	.	.	4d\	-e	.	.	.
.	.	.	.	.	.	.	8r	.	.	.	.
.	.	.	.	.	.	.	16f\LL	re-	.	.	.
.	.	.	.	.	.	.	16e-\JJ	.	.	.	.
.	.	.	.	.	.	.	16d\LL	.	.	.	.
.	.	.	.	.	.	.	16c\	.	.	.	.
.	.	.	.	.	.	.	16B-y\	.	.	.	.
!	!	!	!	!	!	!	!LO:TX:t=P:problem:kreska pseudotaktowa	!	!	!	!
!	!	!	!	!	!	!	!LO:SIC:v:t=custos G	!	!	!	!
.	.	.	.	.	.	.	16Any\JJ	.	.	.	.
!	!	!	!	!	!	!	!LO:LB:g=original	!	!	!	!
=22-	=22-	=22-	=22-	=22-	=22-	=22-	=22-	=22-	=22-	=22-	=22-
!	!	!	!LO:TX:t=P:problem:kreska pseudotaktowa	!	!	!	!	!	!	!	!
2E-X\	.	.	1r	.	1r	.	8G/	-ſúr-	0r	.	.
.	.	.	.	.	.	.	8G/	-gam	.	.	.
.	.	.	.	.	.	.	8r	.	.	.	.
.	.	.	.	.	.	.	16e-X\LL	re-	.	.	.
.	.	.	.	.	.	.	16d\JJ	.	.	.	.
!LO:TX:t=P:problem:kreska pseudotaktowa	!	!	!	!	!	!	!	!	!	!	!
!LO:SIC:v:t=custos BB	!	!	!	!	!	!	!LO:TX:t=P:problem:kreska pseudotaktowa	!	!	!	!
2F\	4:3	.	.	.	.	.	2c\	-ſúr-	.	.	.
!LO:LB:g=original	!	!	!	!	!	!	!	!	!	!	!
2BB-/	.	.	4r	.	4r	.	2B-\	-gam	.	.	.
.	.	.	4b-/	.	4dd\	.	.	.	.	.	.
4E-X\	6:5	.	4.b-/	.	4.cc\	.	2r	.	.	.	.
4F\	4:3	.	.	.	.	.	.	.	.	.	.
!	!	!	!LO:TX:t=P:problem:kreska pseudotaktowa	!	!	!	!	!	!	!	!
.	.	.	8a/	.	16dd\LL	.	.	.	.	.	.
!	!	!	!	!	!LO:TX:t=P:problem:kreska pseudotaktowa	!	!	!	!	!	!
!	!	!	!	!	!LO:SIC:v:t=custos b	!	!	!	!	!	!
.	.	.	.	.	16cc\JJ	.	.	.	.	.	.
!	!	!	!	!	!LO:LB:g=original	!	!	!	!	!	!
=23-	=23-	=23-	=23-	=23-	=23-	=23-	=23-	=23-	=23-	=23-	=23-
2BB-/	.	.	2b-/	.	2b-/	.	4r	.	0r	.	.
.	.	.	.	.	.	.	8d\	et	.	.	.
.	.	.	.	.	.	.	8d\	no-	.	.	.
!LO:TX:t=P:problem:kreska pseudotaktowa	!	!	!	!	!	!	!	!	!	!	!
2E-X\	7:6	.	1r	.	1r	.	4G/	-úiſ-	.	.	.
.	.	.	.	.	.	.	8G/	-ſi-	.	.	.
!	!	!	!	!	!	!	!LO:TX:t=P:problem:kreska pseudotaktowa	!	!	!	!
.	.	.	.	.	.	.	8F#X/	-mo	.	.	.
4.D\	#	.	.	.	.	.	4A/	di-	.	.	.
.	.	.	.	.	.	.	8A/	-e	.	.	.
8BB-/	.	.	.	.	.	.	8d\	re-	.	.	.
4C/	-	.	2r	.	2r	.	4e-X\	-ſúr-	.	.	.
!LO:TX:t=P:problem:kreska pseudotaktowa	!	!	!	!	!	!	!	!	!	!	!
4D/	6:5	.	.	.	.	.	8d\	-gam	.	.	.
!	!	!	!	!	!	!	!LO:TX:t=P:problem:kreska pseudotaktowa	!	!	!	!
.	.	.	.	.	.	.	8c\	re-	.	.	.
=24-	=24-	=24-	=24-	=24-	=24-	=24-	=24-	=24-	=24-	=24-	=24-
!	!	!	!	!	!	!	!	!	!LO:TX:t=P:problem:kreska pseudotaktowa	!	!
4.E-X\	.	.	1r	.	1r	.	4B-\	-ſúr-	0r	.	.
.	.	.	.	.	.	.	8B-\	-gam	.	.	.
8BB-/	6	.	.	.	.	.	8d\	re-	.	.	.
4C/	6 5	.	.	.	.	.	2A/	-ſúr-	.	.	.
!LO:TX:t=P:problem:kreska pseudotaktowa	!	!	!	!	!	!	!	!	!	!	!
4D/	#	.	.	.	.	.	.	.	.	.	.
2GG/	.	.	4r	.	4r	.	2G/	-ga	.	.	.
.	.	.	4b-/	.	4dd\	.	.	.	.	.	.
!	!	!	!	!	!	!	!LO:TX:t=P:problem:kreska pseudotaktowa	!	!	!	!
4C/	-	.	4cc\	.	4ee-X\	.	2r	.	.	.	.
4D/	6:5	.	8b-/L	.	8dd\L	.	.	.	.	.	.
!	!	!	!LO:TX:t=P:problem:kreska pseudotaktowa	!	!LO:TX:t=P:problem:kreska pseudotaktowa	!	!	!	!	!	!
.	.	.	8a/J	.	8cc\J	.	.	.	.	.	.
!	!	!	!	!	!	!	!LO:LB:g=original	!	!	!	!
=25-	=25-	=25-	=25-	=25-	=25-	=25-	=25-	=25-	=25-	=25-	=25-
4E-X\	.	.	4g/	.	4b-/	.	1r	.	2r	.	.
4C/	6:5	.	8a/L	.	8cc\L	.	.	.	.	.	.
!	!	!	!LO:SIC:v:t=custos g	!	!	!	!	!	!	!	!
.	.	.	8g/J	.	8b-\J	.	.	.	.	.	.
!	!	!	!LO:LB:g=original	!	!	!	!	!	!	!	!
!LO:TX:t=P:problem:kreska pseudotaktowa	!	!	!	!	!	!	!	!	!	!	!
2D\	4#r	.	4g/	.	4.a/	.	.	.	8r	.	.
.	.	.	.	.	.	.	.	.	8A/	et	.
!	!	!	!LO:TX:t=P:problem:kreska pseudotaktowa	!	!	!	!	!	!	!	!
.	.	.	4f#X/	.	.	.	.	.	8d\	re-	.
!	!	!	!	!	!LO:TX:t=P:problem:kreska pseudotaktowa	!	!	!	!	!	!
.	.	.	.	.	8a/	.	.	.	16c/	-no-	.
!	!	!	!	!	!	!	!	!	!LO:TX:t=P:problem:kreska pseudotaktowa	!	!
!	!	!	!	!	!	!	!	!	!LO:SIC:v:t=custos B	!	!
.	.	.	.	.	.	.	.	.	16d\	-úa-	.
!	!	!	!	!	!	!	!	!	!LO:LB:g=original	!	!
2G\	.	.	4g/	.	4b-/	.	2r	.	8B-/	-bún-	.
.	.	.	.	.	.	.	.	.	8G/	-túr	.
.	.	.	2r	.	2r	.	.	.	8d\	de-	.
.	.	.	.	.	.	.	.	.	16d\	-nú-	.
.	.	.	.	.	.	.	.	.	16d\	-o	.
1D\	.	.	.	.	.	.	8r	.	4.f\	oſ-	.
.	.	.	.	.	.	.	8D/	et	.	.	.
.	.	.	4r	.	4r	.	8A/	re-	.	.	.
!	!	!	!	!	!	!	!	!	!LO:TX:t=P:problem:kreska pseudotaktowa	!	!
.	.	.	.	.	.	.	16G/	-no-	8g\	-sa	.
!	!	!	!	!	!	!	!LO:TX:t=P:problem:kreska pseudotaktowa	!	!	!	!
.	.	.	.	.	.	.	16A/	-úa-	.	.	.
=26-	=26-	=26-	=26-	=26-	=26-	=26-	=26-	=26-	=26-	=26-	=26-
!	!	!	!LO:TX:t=P:problem:kreska pseudotaktowa	!	!	!	!	!	!	!	!
.	.	.	1r	.	1r	.	8Fny/	-bún-	8any\	me-	.
.	.	.	.	.	.	.	8D/	-tor	8f\	-a	.
.	.	.	.	.	.	.	8d\	de-	2f\	oſ-	.
.	.	.	.	.	.	.	16A/	-nú-	.	.	.
.	.	.	.	.	.	.	16B-\	-o	.	.	.
4AA/	6	.	.	.	.	.	4c\	oſ-	.	.	.
!LO:TX:t=P:problem:kreska pseudotaktowa	!	!	!	!	!	!	!	!	!	!	!
!LO:SIC:v:t=custos C	!	!	!	!	!	!	!	!	!LO:TX:t=P:problem:kreska pseudotaktowa	!	!
4BB-/	.	.	.	.	.	.	(8B-\L	-sa	4f\	-ſa	.
!	!	!	!	!	!	!	!LO:TX:t=P:problem:kreska pseudotaktowa	!	!	!	!
.	.	.	.	.	.	.	8A\J)	.	.	.	.
!LO:LB:g=original	!	!	!	!	!	!	!	!	!	!	!
2C/	4:3	.	8r	.	2r	.	2G/	me-	(4.f\	me-	.
.	.	.	8g/	.	.	.	.	.	.	.	.
.	.	.	8cc\L	.	.	.	.	.	.	.	.
.	.	.	16b-\L	.	.	.	.	.	8eny\)	.	.
.	.	.	16cc\JJ	.	.	.	.	.	.	.	.
2F\	.	.	8a/L	.	8r	.	4A/	-a	4f\	-a	.
.	.	.	8fny/J	.	8cc\	.	.	.	.	.	.
.	.	.	8.a/L	.	8ff\L	.	4r	.	4r	.	.
.	.	.	.	.	16eeny\L	.	.	.	.	.	.
!	!	!	!LO:TX:t=P:problem:kreska pseudotaktowa	!	!LO:TX:t=P:problem:kreska pseudotaktowa	!	!	!	!	!	!
.	.	.	16a/Jk	.	16ff\JJ	.	.	.	.	.	.
=27-	=27-	=27-	=27-	=27-	=27-	=27-	=27-	=27-	=27-	=27-	=27-
!	!	!	!	!	!	!	!LO:TX:t=P:problem:kreska pseudotaktowa	!	!LO:TX:t=P:problem:kreska pseudotaktowa	!	!
2BB-/	.	.	4b-/	.	8dd\L	.	0r	.	1r	.	.
.	.	.	.	.	8b-\J	.	.	.	.	.	.
.	.	.	8dd\L	.	8ff\L	.	.	.	.	.	.
.	.	.	8dd\J	.	8ff\J	.	.	.	.	.	.
!LO:TX:t=P:problem:kreska pseudotaktowa	!	!	!	!	!	!	!	!	!	!	!
2E-X\	6:5	.	(8ee-X\L	.	(8gg\L	.	.	.	.	.	.
.	.	.	8dd\J)	.	8ff\J)	.	.	.	.	.	.
.	.	.	(8cc\L	.	(8ee-X\L	.	.	.	.	.	.
!	!	!	!LO:TX:t=P:problem:kreska pseudotaktowa	!	!LO:TX:t=P:problem:kreska pseudotaktowa	!	!	!	!	!	!
.	.	.	8b-\J)	.	8dd\J)	.	.	.	.	.	.
4F\	4:3	.	4.b-/	.	4.cc\	.	.	.	8r	.	.
.	.	.	.	.	.	.	.	.	8c\	et	.
4FF/	.	.	.	.	.	.	.	.	8f\	re-	.
.	.	.	8a/	.	8cc\	.	.	.	16e\	-no-	.
.	.	.	.	.	.	.	.	.	16f\	-úa-	.
2BB-/	.	.	4b-/	.	4dd\	.	.	.	8d\	-bún-	.
.	.	.	.	.	.	.	.	.	8B-/	-túr	.
!	!	!	!LO:TX:t=P:problem:kreska pseudotaktowa	!	!	!	!	!	!	!	!
.	.	.	4dd\	.	4ff\	.	.	.	8f\	de-	.
.	.	.	.	.	.	.	.	.	16f\	-nú-	.
!	!	!	!	!	!	!	!	!	!LO:TX:t=P:problem:kreska pseudotaktowa	!	!
!	!	!	!	!	!	!	!	!	!LO:SIC:v:t=custos a	!	!
.	.	.	.	.	.	.	.	.	16g\	-o	.
!	!	!	!	!	!	!	!	!	!LO:LB:g=original	!	!
=28-	=28-	=28-	=28-	=28-	=28-	=28-	=28-	=28-	=28-	=28-	=28-
2FF/	-	.	2cc\	.	2ff\	.	8r	.	4.a-X\	oſ-	.
.	.	.	.	.	.	.	8F/	et	.	.	.
.	.	.	.	.	.	.	8c\	re-	.	.	.
.	.	.	.	.	.	.	16B-\	-no-	8a-\	-sa	.
.	.	.	.	.	.	.	16c\	-úa-	.	.	.
!LO:TX:t=P:problem:kreska pseudotaktowa	!	!	!	!	!LO:TX:t=P:problem:kreska pseudotaktowa	!	!LO:TX:t=P:problem:# i ♭ przed nutą	!	!	!	!
2F\	-	.	4cc\	.	2r	.	8A-/	-bún-	4f\	me-	.
.	.	.	.	.	.	.	8F/	-tor	.	.	.
.	.	.	4a-X/	.	.	.	8c\	de-	4f\	-a	.
.	.	.	.	.	.	.	16c\	-nú-	.	.	.
!	!	!	!	!	!	!	!LO:TX:t=P:problem:kreska pseudotaktowa	!	!	!	!
.	.	.	.	.	.	.	16d\	-o	.	.	.
!	!	!	!	!	!LO:LB:g=original	!	!LO:LB:g=original	!	!	!	!
1C	-	.	2g/	.	8r	.	4.e-X\	oſ-	1r	.	.
.	.	.	.	.	8cc\	.	.	.	.	.	.
.	.	.	.	.	8gg\L	.	.	.	.	.	.
.	.	.	.	.	16ff\L	.	8d\	-ſa	.	.	.
.	.	.	.	.	16gg\JJ	.	.	.	.	.	.
!	!	!	!LO:TX:t=P:problem:kreska pseudotaktowa	!	!	!	!	!	!	!	!
!	!	!	!LO:SIC:v:t=custos g	!	!	!	!	!	!	!	!
.	.	.	2g/	.	8ee-X\L	.	4c\	me-	.	.	.
.	.	.	.	.	8cc\J	.	.	.	.	.	.
.	.	.	.	.	8gg\L	.	4c\	-a	.	.	.
.	.	.	.	.	16gg\L	.	.	.	.	.	.
!	!	!	!	!	!LO:TX:t=P:problem:kreska pseudotaktowa	!	!	!	!	!	!
.	.	.	.	.	16aany\JJ	.	.	.	.	.	.
!	!	!	!LO:LB:g=original	!	!	!	!	!	!	!	!
=29-	=29-	=29-	=29-	=29-	=29-	=29-	=29-	=29-	=29-	=29-	=29-
!LO:TX:t=P:problem:kreska pseudotaktowa	!	!	!	!	!	!	!LO:TX:t=P:problem:kreska pseudotaktowa	!	!LO:TX:t=P:problem:kreska pseudotaktowa	!	!
1GG	.	.	8r	.	4.bb-\	.	0r	.	1r	.	.
.	.	.	8g/	.	.	.	.	.	.	.	.
.	.	.	8dd\L	.	.	.	.	.	.	.	.
.	.	.	16cc\L	.	8aa\	.	.	.	.	.	.
.	.	.	16dd\JJ	.	.	.	.	.	.	.	.
.	.	.	8b-/L	.	4gg\	.	.	.	.	.	.
.	.	.	8g/J	.	.	.	.	.	.	.	.
!	!	!	!	!	!LO:TX:t=P:problem:kreska pseudotaktowa	!	!	!	!	!	!
.	.	.	8dd\L	.	4bb-\	.	.	.	.	.	.
.	.	.	16dd\L	.	.	.	.	.	.	.	.
!	!	!	!LO:TX:t=P:problem:kreska pseudotaktowa	!	!	!	!	!	!	!	!
.	.	.	16eeny\JJ	.	.	.	.	.	.	.	.
1D	-	.	4ff\	.	4aa\	.	.	.	8r	.	.
.	.	.	.	.	.	.	.	.	8d\	et	.
.	.	.	4dd\	.	4ff\	.	.	.	8any\	re-	.
.	.	.	.	.	.	.	.	.	16g\	-no-	.
.	.	.	.	.	.	.	.	.	16a\	-úa-	.
.	.	.	4.ff\	.	4.aa\	.	.	.	8f\	bún-	.
.	.	.	.	.	.	.	.	.	8d\	-túr	.
.	.	.	.	.	.	.	.	.	8a\	de-	.
!	!	!	!LO:TX:t=P:problem:kreska pseudotaktowa	!	!LO:TX:t=P:problem:kreska pseudotaktowa	!	!	!	!	!	!
.	.	.	8ff\	.	8aa\	.	.	.	16g\	-nú-	.
!	!	!	!	!	!	!	!	!	!LO:TX:t=P:problem:kreska pseudotaktowa	!	!
.	.	.	.	.	.	.	.	.	16a\	-o	.
=30-	=30-	=30-	=30-	=30-	=30-	=30-	=30-	=30-	=30-	=30-	=30-
4GG/	.	.	4dd\	.	4.gg\	.	2r	.	4b-X\	oſ-	.
8AA/L	6	.	4cc\	.	.	.	.	.	4a\	-ſa	.
8BB-/J	.	.	.	.	8ff\	.	.	.	.	.	.
4C/	.	.	4.cc\	.	4.ff\	.	8r	.	2g\	me-	.
.	.	.	.	.	.	.	8G/	et	.	.	.
!LO:TX:t=P:problem:kreska pseudotaktowa	!	!	!	!	!	!	!	!	!	!	!
4CC/	4:3	.	.	.	.	.	8c\	re-	.	.	.
!	!	!	!LO:TX:t=P:problem:kreska pseudotaktowa	!	!LO:TX:t=P:problem:kreska pseudotaktowa	!	!	!	!	!	!
.	.	.	8cc\	.	8eeny\	.	16B-\	-no-	.	.	.
!	!	!	!	!	!	!	!LO:TX:t=P:problem:kreska pseudotaktowa	!	!	!	!
.	.	.	.	.	.	.	16c\	-úa	.	.	.
2FF/	.	.	4cc\	.	8ff\L	.	2Any/	bún-	4f\	-a	.
.	.	.	.	.	8cc\J	.	.	.	.	.	.
.	.	.	8any/L	.	8ff\L	.	.	.	4r	.	.
!	!	!	!LO:N:acc=#	!	!	!	!	!	!	!	!
.	.	.	8bn/J	.	16ee-X\L	.	.	.	.	.	.
.	.	.	.	.	16dd\JJ	.	.	.	.	.	.
!	!	!	!	!	!	!	!	!	!LO:TX:t=P:problem:kreska pseudotaktowa	!	!
2C/	-	.	8cc\L	.	8ee-X\L	.	4G/	-túr	2r	.	.
.	.	.	8ee-X\J	.	8cc\J	.	.	.	.	.	.
.	.	.	8ee-\L	.	8gg\L	.	8c\	de-	.	.	.
.	.	.	16ee-\L	.	16gg\L	.	16c\	-nú-	.	.	.
!	!	!	!	!	!LO:TX:t=P:problem:kreska pseudotaktowa	!	!	!	!	!	!
!	!	!	!LO:TX:t=P:problem:kreska pseudotaktowa	!	!LO:SIC:v:t=custos ff	!	!LO:TX:t=P:problem:kreska pseudotaktowa	!	!	!	!
.	.	.	16ee-\JJ	.	16gg\JJ	.	16c\	-o	.	.	.
!	!	!	!	!	!LO:LB:g=original	!	!	!	!	!	!
=31-	=31-	=31-	=31-	=31-	=31-	=31-	=31-	=31-	=31-	=31-	=31-
2F\	6:5	.	4dd\	.	4.ff\	.	4.F/	oſ-	2r	.	.
.	.	.	4cc\	.	.	.	.	.	.	.	.
.	.	.	.	.	8eeny\	.	8F/	-ſa	.	.	.
!LO:TX:t=P:problem:kreska pseudotaktowa	!	!	!	!	!	!	!LO:TX:t=P:problem:kreska pseudotaktowa	!	!	!	!
2G\	4:3 #	.	4.cc\	.	4.dd\	.	2G/	me-	8r	.	.
.	.	.	.	.	.	.	.	.	8d\	et	.
.	.	.	.	.	.	.	.	.	8g\	re-	.
!	!	!	!LO:TX:t=P:problem:kreska pseudotaktowa	!	!	!	!	!	!	!	!
!	!	!	!LO:N:acc=#	!	!LO:TX:t=P:problem:kreska pseudotaktowa	!	!	!	!	!	!
.	.	.	8bn/	.	8dd\	.	.	.	16f\	-no-	.
!	!	!	!	!	!	!	!	!	!LO:TX:t=P:problem:kreska pseudotaktowa	!	!
!	!	!	!	!	!	!	!	!	!LO:SIC:v:t=custos e	!	!
.	.	.	.	.	.	.	.	.	16g\	-úa-	.
!	!	!	!	!	!	!	!	!	!LO:LB:g=original	!	!
2C/	#	.	4cc\	.	4ee\	.	8c\	-a	8e\	bún-	.
.	.	.	.	.	.	.	8G/	et	8c/	-túr	.
.	.	.	4cc\	.	4ee\	.	8c\	re-	8e\	de-	.
.	.	.	.	.	.	.	16B-\	-no-	16e\	-nú-	.
!	!	!	!	!	!	!	!LO:TX:t=P:problem:kreska pseudotaktowa	!	!	!	!
!	!	!	!	!	!	!	!LO:SIC:v:t=custos A	!	!	!	!
.	.	.	.	.	.	.	16c\	-úa	16e\	-o	.
!	!	!	!LO:TX:t=P:problem:kreska pseudotaktowa	!	!	!	!	!	!	!	!
!	!	!	!LO:SIC:v:t=custos dd	!	!	!	!LO:LB:g=original	!	!	!	!
2F\	.	.	2cc\	.	4.aa\	.	8A/	bún-	8f\	oſ-	.
.	.	.	.	.	.	.	8F/	-túr	8f\	-sa	.
.	.	.	.	.	.	.	8f\	de-	8a\	de-	.
!	!	!	!	!	!LO:TX:t=P:problem:kreska pseudotaktowa	!	!	!	!	!	!
.	.	.	.	.	8aa\	.	16f\	-nú-	16a\	-nú-	.
!	!	!	!	!	!	!	!LO:TX:t=P:problem:kreska pseudotaktowa	!	!LO:TX:t=P:problem:kreska pseudotaktowa	!	!
.	.	.	.	.	.	.	16f\	-o	16a\	-o	.
!	!	!	!LO:LB:g=original	!	!	!	!	!	!	!	!
=32-	=32-	=32-	=32-	=32-	=32-	=32-	=32-	=32-	=32-	=32-	=32-
2G\	6:5	.	4r	.	2bb-\	.	4eny\	oſ-	4.g\	oſ-	.
.	.	.	4dd\	.	.	.	4d\	-ſa	.	.	.
.	.	.	.	.	.	.	.	.	8f\	-sa	.
!LO:TX:t=P:problem:kreska pseudotaktowa	!	!	!	!	!	!	!	!	!	!	!
!LO:SIC:v:t=custos D	!	!	!	!	!	!	!	!	!LO:TX:t=P:problem:kreska pseudotaktowa	!	!
2Any\	4#r	.	4.a/	.	4.aa\	.	(4.d\	me-	2e\	me-	.
!	!	!	!LO:TX:t=P:problem:kreska pseudotaktowa	!	!LO:TX:t=P:problem:kreska pseudotaktowa	!	!LO:TX:t=P:problem:kreska pseudotaktowa	!	!	!	!
.	.	.	8a/	.	8gg\	.	8c#X\)	.	.	.	.
!LO:LB:g=original	!	!	!	!	!	!	!	!	!	!	!
4D/	.	.	4a/	.	2ff\	.	(8d\L	-a	4f\	-a	.
.	.	.	.	.	.	.	8e\J)	.	.	.	.
4BB-/	.	.	8dd\L	.	.	.	8f\	oſ-	8b-\	oſ-	.
.	.	.	8dd\J	.	.	.	8f\	-sa	8a\	-sa	.
!	!	!	!	!	!LO:TX:t=P:problem:kreska pseudotaktowa	!	!	!	!	!	!
!	!	!	!	!	!LO:TX:b:t=Verte Cito	!	!	!	!LO:TX:t=P:problem:kreska pseudotaktowa	!	!
2C/	4:3	.	8cc/L	.	2r	.	(4.f\	me-	2g\	me-	.
.	.	.	8g/J	.	.	.	.	.	.	.	.
.	.	.	8cc\L	.	.	.	.	.	.	.	.
!	!	!	!	!	!	!	!LO:TX:t=P:problem:kreska pseudotaktowa	!	!	!	!
.	.	.	16b-y\L	.	.	.	8e\)	.	.	.	.
!	!	!	!LO:TX:t=P:problem:kreska pseudotaktowa	!	!	!	!	!	!	!	!
.	.	.	16cc\JJ	.	.	.	.	.	.	.	.
!	!	!	!	!	!LO:PB:g=original	!	!	!	!	!	!
=33-	=33-	=33-	=33-	=33-	=33-	=33-	=33-	=33-	=33-	=33-	=33-
2FF/	.	.	4.a/	.	8r	.	4f\	-a	4f\	-a	.
.	.	.	.	.	8cc\	.	.	.	.	.	.
.	.	.	.	.	8ff\L	.	2r	.	2r	.	.
.	.	.	8a/	.	16ee\L	.	.	.	.	.	.
.	.	.	.	.	16ff\JJ	.	.	.	.	.	.
4BB-/	.	.	8b-/L	.	8dd\L	.	.	.	.	.	.
.	.	.	8b-/	.	8dd\	.	.	.	.	.	.
!LO:TX:t=P:problem:kreska pseudotaktowa	!	!	!	!	!	!	!	!	!	!	!
4C/	6:5	.	8a/	.	8cc\	.	4r	.	4r	.	.
!	!	!	!LO:TX:t=P:problem:kreska pseudotaktowa	!	!LO:TX:t=P:problem:kreska pseudotaktowa	!	!	!	!	!	!
.	.	.	8g/J	.	8b-\J	.	.	.	.	.	.
!	!	!	!	!	!	!	!	!	!LO:TX:a:t=7	!	!
2D/	4#r:3	.	4.g/	.	4.a/	.	1r	.	1r	.	.
.	.	.	8f#X/	.	16b-/LL	.	.	.	.	.	.
.	.	.	.	.	16a/JJ	.	.	.	.	.	.
!	!	!	!	!	!LO:TX:a:t=P:problem:mixed beam	!	!	!	!	!	!
2G\	#	.	4g/	.	8g/L	.	.	.	.	.	.
.	.	.	.	.	8dd\J	.	.	.	.	.	.
!	!	!	!LO:TX:t=P:problem:kreska pseudotaktowa	!	!	!	!	!	!	!	!
!	!	!	!LO:N:acc=#	!	!	!	!	!	!	!	!
.	.	.	4bn/	.	8gg\L	.	.	.	.	.	.
.	.	.	.	.	16ff\L	.	.	.	.	.	.
!	!	!	!	!	!LO:TX:t=P:problem:kreska pseudotaktowa	!	!	!	!	!	!
.	.	.	.	.	16gg\JJ	.	.	.	.	.	.
=34-	=34-	=34-	=34-	=34-	=34-	=34-	=34-	=34-	=34-	=34-	=34-
2C/	.	.	8cc/L	.	4.ee\	.	0r	.	0r	.	.
.	.	.	8g/J	.	.	.	.	.	.	.	.
.	.	.	8cc/L	.	.	.	.	.	.	.	.
.	.	.	16b-y/L	.	8ee\	.	.	.	.	.	.
.	.	.	16cc/JJ	.	.	.	.	.	.	.	.
!LO:TX:t=P:problem:kreska pseudotaktowa	!	!	!	!	!	!	!	!	!	!	!
2F\	.	.	4.a/	.	8ff\L	.	.	.	.	.	.
.	.	.	.	.	8cc\J	.	.	.	.	.	.
.	.	.	.	.	8ff\L	.	.	.	.	.	.
!	!	!	!LO:TX:t=P:problem:kreska pseudotaktowa	!	!	!	!	!	!	!	!
.	.	.	8a/	.	16ee\L	.	.	.	.	.	.
!	!	!	!	!	!LO:TX:t=P:problem:kreska pseudotaktowa	!	!	!	!	!	!
.	.	.	.	.	16ff\JJ	.	.	.	.	.	.
4BB-/	.	.	8b-/L	.	8dd\L	.	.	.	.	.	.
.	.	.	8b-/J	.	8dd\	.	.	.	.	.	.
4C/	.	.	8a/L	.	8cc\	.	.	.	.	.	.
.	.	.	8g/J	.	8b-\J	.	.	.	.	.	.
4D/	.	.	8fny/L	.	8a/L	.	.	.	.	.	.
.	.	.	16f/L	.	16a/L	.	.	.	.	.	.
.	.	.	16g/JJ	.	16b-/JJ	.	.	.	.	.	.
!	!	!	!LO:TX:t=P:problem:kreska pseudotaktowa	!	!LO:TX:t=P:problem:kreska pseudotaktowa	!	!	!	!	!	!
4AA/	6	.	4a/	.	4cc\	.	.	.	.	.	.
=35-	=35-	=35-	=35-	=35-	=35-	=35-	=35-	=35-	=35-	=35-	=35-
!	!	!	!LO:TX:b:t=Verte Cito	!	!	!	!LO:TX:t=P:problem:kreska pseudotaktowa	!	!	!	!
2BB-/	.	.	8d/L	.	4.b-/	.	1r	.	0r	.	.
.	.	.	8eny/J	.	.	.	.	.	.	.	.
.	.	.	2f/	.	.	.	.	.	.	.	.
.	.	.	.	.	8a/	.	.	.	.	.	.
!LO:TX:t=P:problem:kreska pseudotaktowa	!	!	!	!	!	!	!	!	!	!	!
2C/	4:3	.	.	.	4.g/	.	.	.	.	.	.
!	!	!	!LO:TX:t=P:problem:kreska pseudotaktowa	!	!	!	!	!	!	!	!
!	!	!	!LO:SIC:v:t=custos f	!	!	!	!	!	!	!	!
.	.	.	4e/	.	.	.	.	.	.	.	.
!	!	!	!	!	!LO:TX:t=P:problem:kreska pseudotaktowa	!	!	!	!	!	!
!	!	!	!	!	!LO:SIC:v:t=custos a	!	!	!	!	!	!
.	.	.	.	.	8g/	.	.	.	.	.	.
!	!	!	!LO:PB:g=original	!	!LO:LB:g=original	!	!	!	!	!	!
2FF/	.	.	2f/	.	2a/	.	4r	.	.	.	.
.	.	.	.	.	.	.	8cny\	et	.	.	.
.	.	.	.	.	.	.	8c\	in	.	.	.
4FF/	6	.	4r	.	4a/	.	4d\	Car-	.	.	.
!	!	!	!	!	!	!	!LO:TX:t=P:problem:kreska pseudotaktowa	!	!	!	!
4FF#X/	6	.	8a/L	.	4dd\	.	4d\	-ne	.	.	.
.	.	.	8a/J	.	.	.	.	.	.	.	.
=36-	=36-	=36-	=36-	=36-	=36-	=36-	=36-	=36-	=36-	=36-	=36-
!	!	!	!	!	!	!	!	!	!LO:TX:t=P:problem:kreska pseudotaktowa	!	!
[2GG/	.	.	2.b-/	.	2dd\	.	4r	.	0r	.	.
.	.	.	.	.	.	.	8d\	et	.	.	.
!	!	!	!	!	!	!	!LO:SIC:v:t=custos es	!	!	!	!
.	.	.	.	.	.	.	8d\	in	.	.	.
!	!	!	!	!	!	!	!LO:LB:g=original	!	!	!	!
!	!	!	!	!	!LO:TX:t=P:problem:kreska pseudotaktowa	!	!	!	!	!	!
4GG]	- 6	.	.	.	2r	.	4e-X\	Car-	.	.	.
!LO:TX:t=P:problem:kreska pseudotaktowa	!	!	!LO:TX:t=P:problem:kreska pseudotaktowa	!	!	!	!	!	!	!	!
4AA/	5	.	4cc\	.	.	.	8e-\L	-ne	.	.	.
!	!	!	!	!	!	!	!LO:TX:t=P:problem:kreska pseudotaktowa	!	!	!	!
.	.	.	.	.	.	.	8d\J	.	.	.	.
2BB-/	.	.	4f/	.	4r	.	4d\	me-	.	.	.
.	.	.	2b-/	.	4dd\	.	8d\	-a	.	.	.
.	.	.	.	.	.	.	8f\	vi-	.	.	.
2E-X\	6 5	.	.	.	2g/	.	4.c\	-de-	.	.	.
.	.	.	2b-/	.	.	.	.	.	.	.	.
!	!	!	!	!	!	!	!LO:TX:t=P:problem:kreska pseudotaktowa	!	!	!	!
.	.	.	.	.	.	.	8c\	-bo	.	.	.
!	!	!	!	!	!	!	!	!	!LO:PB:g=original	!	!
=37-	=37-	=37-	=37-	=37-	=37-	=37-	=37-	=37-	=37-	=37-	=37-
2F\	4:3	.	.	.	4.fny/	.	4.c\	do-	2r	.	.
.	.	.	4a/	.	.	.	.	.	.	.	.
.	.	.	.	.	8e/	.	8B-\	-mi-	.	.	.
!LO:TX:t=P:problem:kreska pseudotaktowa	!	!	!	!	!	!	!LO:TX:t=P:problem:kreska pseudotaktowa	!	!	!	!
N[2BB-/	.	.	4b-/	.	4d/	.	2B-\	-núm	4r	.	.
!	!	!	!LO:TX:t=P:problem:kreska pseudotaktowa	!	!	!	!	!	!	!	!
.	.	.	[4b-/	.	2dd\	.	.	.	8f\	et	.
!	!	!	!	!	!	!	!	!	!LO:TX:t=P:problem:kreska pseudotaktowa	!	!
.	.	.	.	.	.	.	.	.	8f\	in	.
4BB-/]	6	.	4b-/]	.	.	.	4r	.	4.g\	Car-	.
!LO:N:acc=#	!	!	!	!	!	!	!	!	!	!	!
8BBn/L	6	.	4g/	.	4dd\	.	8d\	et	.	.	.
8BB/J	.	.	.	.	.	.	8d\	in	8f\	-ne	.
!	!	!	!	!	!LO:TX:t=P:problem:kreska pseudotaktowa	!	!	!	!	!	!
2C/	- 9:8	.	2g/	.	2ee-X\	.	4d\	Car-	2e-X\	me-	.
!	!	!	!	!	!	!	!LO:TX:t=P:problem:kreska pseudotaktowa	!	!	!	!
.	.	.	.	.	.	.	4c\	-ne	.	.	.
=38-	=38-	=38-	=38-	=38-	=38-	=38-	=38-	=38-	=38-	=38-	=38-
2G\	4:3 #:-	.	4g/	.	4r	.	4c\	me-	2d\	-a	.
!	!	!	!	!	!	!	!LO:N:acc=#	!	!	!	!
.	.	.	4dd\	.	8gg\L	.	8Bn\	-a	.	.	.
.	.	.	.	.	8gg\J	.	8B\	vi-	.	.	.
!LO:TX:t=P:problem:kreska pseudotaktowa	!	!	!LO:TX:t=P:problem:kreska pseudotaktowa	!	!	!	!LO:TX:t=P:problem:kreska pseudotaktowa	!	!LO:TX:t=P:problem:kreska pseudotaktowa	!	!
2A-X\	7:6	.	2cc\	.	4gg\	.	2c\	-de-	2r	.	.
!	!	!	!	!	!LO:TX:t=P:problem:kreska pseudotaktowa	!	!	!	!	!	!
.	.	.	.	.	4ff\	.	.	.	.	.	.
!LO:N:acc=#	!	!	!	!	!	!	!	!	!	!	!
2En\	6	.	4.cc\	.	4gg\	.	4c\	-bo	4r	.	.
.	.	.	.	.	4gg\	.	4c\	vi-	4g\	Vi-	.
.	.	.	8cc\	.	.	.	.	.	.	.	.
2F\	-	.	4cc\	.	4.ff\	.	4.c\	-de-	4.a-X\	-de-	.
.	.	.	4cc\	.	.	.	.	.	.	.	.
!	!	!	!	!	!LO:TX:t=P:problem:kreska pseudotaktowa	!	!LO:TX:t=P:problem:kreska pseudotaktowa	!	!	!	!
.	.	.	.	.	8ff\	.	8c\	-bo	8a-\	-bo	.
=39-	=39-	=39-	=39-	=39-	=39-	=39-	=39-	=39-	=39-	=39-	=39-
!	!	!	!	!	!	!	!LO:N:acc=#	!	!	!	!
1G	3:4:3 #	.	2.g/	.	4r	.	4Bn\	do-	2.d\	do-	.
.	.	.	.	.	4dd\	.	(2c\	.	.	.	.
.	.	.	.	.	4.gg\	.	.	.	.	.	.
!	!	!	!	!	!	!	!LO:N:acc=#	!	!	!	!
.	.	.	4g/	.	.	.	4B#X\)	-mi-	4d\	-mi-	.
.	.	.	.	.	8ff\	.	.	.	.	.	.
!LO:TX:t=P:problem:kreska pseudotaktowa	!	!	!LO:TX:t=P:problem:kreska pseudotaktowa	!	!LO:TX:t=P:problem:kreska pseudotaktowa	!	!LO:TX:t=P:problem:kreska pseudotaktowa	!	!LO:TX:t=P:problem:kreska pseudotaktowa	!	!
1C	.	.	1g	.	1eeny;	.	1c	-núm	1eny	-núm	.
!	!	!	!	!	!	!	!LO:PB:g=original	!	!	!	!
=40-	=40-	=40-	=40-	=40-	=40-	=40-	=40-	=40-	=40-	=40-	=40-
*M3/2	*	*	*M3/2	*	*M3/2	*	*M3/2	*	*M3/2	*	*
!	!	!	!LO:TX:a:t=21	!	!LO:TX:a:t=22	!	!	!	!	!	!
1C	-	.	1.r	.	1.r	.	1.r	.	2r	.	.
.	.	.	.	.	.	.	.	.	2g\	Laú-	.
!LO:TX:t=P:problem:kreska pseudotaktowa	!	!	!	!	!	!	!	!	!	!	!
!LO:N:acc=#	!	!	!	!	!	!	!	!	!LO:TX:t=P:problem:kreska pseudotaktowa	!	!
2BBn/	6	.	.	.	.	.	.	.	2d\	-da	.
=41-	=41-	=41-	=41-	=41-	=41-	=41-	=41-	=41-	=41-	=41-	=41-
1.C	-	.	1.r	.	1.r	.	1.r	.	2.e-X\	a-	.
.	.	.	.	.	.	.	.	.	4d\	-ni-	.
.	.	.	.	.	.	.	.	.	2c/	-ma	.
=42-	=42-	=42-	=42-	=42-	=42-	=42-	=42-	=42-	=42-	=42-	=42-
2F\	.	.	1.r	.	1.r	.	2r	.	2c/	me-	.
!	!	!	!	!	!	!	!	!	!LO:TX:t=P:problem:kreska pseudotaktowa	!	!
!LO:TX:t=P:problem:kreska pseudotaktowa	!	!	!	!	!	!	!	!	!LO:N:acc=#	!	!
1G	#	.	.	.	.	.	2G/	Laú-	1Bn	-a	.
!	!	!	!	!	!	!	!LO:TX:t=P:problem:kreska pseudotaktowa	!	!	!	!
.	.	.	.	.	.	.	2d\	-da	.	.	.
!	!	!	!	!	!	!	!	!	!LO:LB:g=original	!	!
=43-	=43-	=43-	=43-	=43-	=43-	=43-	=43-	=43-	=43-	=43-	=43-
1.C	-	.	1.r	.	1.r	.	2.e-X\	a-	2.c/	a-	.
.	.	.	.	.	.	.	4d\	-ni-	4d\	-ni-	.
.	.	.	.	.	.	.	2c\	-ma	2e-X\	-ma	.
=44-	=44-	=44-	=44-	=44-	=44-	=44-	=44-	=44-	=44-	=44-	=44-
2F\	6 5	.	1.r	.	1.r	.	2c\	me-	1d	me-	.
!	!	!	!	!	!	!	!LO:TX:t=P:problem:kreska pseudotaktowa	!	!	!	!
!LO:TX:t=P:problem:kreska pseudotaktowa	!	!	!	!	!	!	!LO:N:acc=#	!	!	!	!
1G	#	.	.	.	.	.	1Bn	-a	.	.	.
!	!	!	!	!	!	!	!	!	!LO:TX:t=P:problem:kreska pseudotaktowa	!	!
.	.	.	.	.	.	.	.	.	2g\	-ma	.
=45-	=45-	=45-	=45-	=45-	=45-	=45-	=45-	=45-	=45-	=45-	=45-
!LO:TX:t=P:problem:kreska pseudotaktowa	!	!	!	!	!	!	!	!	!	!	!
!LO:SIC:v:t=custos G	!	!	!	!	!	!	!	!	!	!	!
1.Any	7:6	.	1.r	.	1.r	.	1c	do-	1g	do-	.
.	.	.	.	.	.	.	2c\	-mi-	2f\	-mi-	.
!LO:PB:g=original	!	!	!	!	!	!	!	!	!	!	!
=46-	=46-	=46-	=46-	=46-	=46-	=46-	=46-	=46-	=46-	=46-	=46-
!	!	!	!	!	!	!	!LO:N:acc=#	!	!	!	!
2G\	#	.	1.r	.	1.r	.	2Bn\	-núm	2g\	-núm	.
2E-X\	.	.	.	.	.	.	2e-X\	laú-	2g\	Laú-	.
!LO:TX:t=P:problem:kreska pseudotaktowa	!	!	!	!	!	!	!LO:TX:t=P:problem:kreska pseudotaktowa	!	!	!	!
2A-X\	.	.	.	.	.	.	2e-\	-da	2f\	-da	.
=47-	=47-	=47-	=47-	=47-	=47-	=47-	=47-	=47-	=47-	=47-	=47-
!	!	!	!	!	!	!	!	!	!LO:TX:t=P:problem:kreska pseudotaktowa	!	!
2B-\	.	.	1.r	.	1.r	.	(1e-X	laú-	1.f	laú-	.
1BB-y	4:3	.	.	.	.	.	.	.	.	.	.
.	.	.	.	.	.	.	2d\)	.	.	.	.
=48-	=48-	=48-	=48-	=48-	=48-	=48-	=48-	=48-	=48-	=48-	=48-
2E-X\	.	.	1.r	.	1.r	.	2e-X\	-da	2e-X\	-da	.
2E-\	.	.	.	.	.	.	2r	.	2g\	laú-	.
!LO:TX:t=P:problem:kreska pseudotaktowa	!	!	!	!	!	!	!	!	!	!	!
!LO:N:acc=#	!	!	!	!	!	!	!	!	!	!	!
2BBn/	6	.	.	.	.	.	2r	.	2d\	-da	.
=49-	=49-	=49-	=49-	=49-	=49-	=49-	=49-	=49-	=49-	=49-	=49-
!	!	!	!	!	!	!	!	!	!LO:TX:t=P:problem:kreska pseudotaktowa	!	!
1.C	-	.	1.r	.	1.r	.	2r	.	1.e-X	a-	.
.	.	.	.	.	.	.	2c\	laú-	.	.	.
!	!	!	!	!	!	!	!LO:TX:t=P:problem:kreska pseudotaktowa	!	!	!	!
!	!	!	!	!	!	!	!LO:SIC:v:t=custos A	!	!	!	!
.	.	.	.	.	.	.	2G/	-da	.	.	.
!	!	!	!	!	!	!	!LO:LB:g=original	!	!	!	!
=50-	=50-	=50-	=50-	=50-	=50-	=50-	=50-	=50-	=50-	=50-	=50-
!LO:TX:t=P:problem:kreska pseudotaktowa	!	!	!	!	!	!	!	!	!	!	!
1.F	7	.	1.r	.	1.r	.	2.A/	a-	1eny	-ni-	.
.	.	.	.	.	.	.	4B-y\	-ni-	.	.	.
!	!	!	!	!	!	!	!LO:TX:t=P:problem:kreska pseudotaktowa	!	!	!	!
.	.	.	.	.	.	.	2c\	-ma	2e\	-ma	.
=51-	=51-	=51-	=51-	=51-	=51-	=51-	=51-	=51-	=51-	=51-	=51-
*col	*	*	*	*	*	*	*col	*	*col	*	*
!	!	!	!	!	!	!	!LO:N:acc=#	!	!	!	!
1G	#	.	1.r	.	1.r	.	1Bn	me-	1d	me-	.
1F#X\	6 5	.	.	.	.	.	1c\	-a	1d\	-a	.
*	*	*	*	*	*	*	*Xcol	*	*Xcol	*	*
=52-	=52-	=52-	=52-	=52-	=52-	=52-	=52-	=52-	=52-	=52-	=52-
.	.	.	1.r	.	1.r	.	.	.	.	.	.
!LO:TX:t=P:problem:kreska pseudotaktowa	!	!	!	!	!	!	!	!	!	!	!
1G	# 4:3	.	.	.	.	.	2.c\	do-	2.d\	do-	.
!	!	!	!	!	!	!	!LO:TX:t=P:problem:kreska pseudotaktowa	!	!LO:TX:t=P:problem:kreska pseudotaktowa	!	!
!	!	!	!	!	!	!	!LO:N:acc=#	!	!	!	!
.	.	.	.	.	.	.	4Bn\	-mi-	4c/	-mi-	.
*Xcol	*	*	*	*	*	*	*	*	*	*	*
=53-	=53-	=53-	=53-	=53-	=53-	=53-	=53-	=53-	=53-	=53-	=53-
2C/	.	.	1.r	.	1.r	.	4c\	-núm	2c/	-núm	.
.	.	.	.	.	.	.	4c\	Laú-	.	.	.
2D/	6	.	.	.	.	.	4B-y\	-da-	2r	.	.
.	.	.	.	.	.	.	4A/	-bo	.	.	.
2Eny\	.	.	.	.	.	.	4.G/	do-	2r	.	.
!	!	!	!	!	!	!	!LO:TX:t=P:problem:kreska pseudotaktowa	!	!	!	!
.	.	.	.	.	.	.	8G/	-mi-	.	.	.
=54-	=54-	=54-	=54-	=54-	=54-	=54-	=54-	=54-	=54-	=54-	=54-
!	!	!	!	!	!	!	!	!	!LO:TX:t=P:problem:kreska pseudotaktowa	!	!
2Fny\	.	.	1.r	.	1.r	.	4A/	-núm	1.r	.	.
.	.	.	.	.	.	.	4B-\	in	.	.	.
4AA/	.	.	.	.	.	.	4c\	vi-	.	.	.
4BB-y/	6	.	.	.	.	.	4G/	-ta	.	.	.
!LO:TX:t=P:problem:kreska pseudotaktowa	!	!	!	!	!	!	!LO:TX:t=P:problem:kreska pseudotaktowa	!	!	!	!
2C/	.	.	.	.	.	.	2G/	me-	.	.	.
!	!	!	!	!	!	!	!LO:LB:g=original	!	!LO:LB:g=original	!	!
=55-	=55-	=55-	=55-	=55-	=55-	=55-	=55-	=55-	=55-	=55-	=55-
2FFny/	.	.	1.r	.	1.r	.	2F/	-a	4r	.	.
.	.	.	.	.	.	.	.	.	4f\	laú-	.
2GG/	6-	.	.	.	.	.	2r	.	4e-X\	-da-	.
.	.	.	.	.	.	.	.	.	4d\	-bo	.
!LO:TX:t=P:problem:kreska pseudotaktowa	!	!	!	!	!	!	!	!	!	!	!
!LO:SIC:v:t=custos B	!	!	!	!	!	!	!	!	!	!	!
2AA/	.	.	.	.	.	.	2r	.	4.c/	do-	.
!	!	!	!	!	!	!	!	!	!LO:TX:t=P:problem:kreska pseudotaktowa	!	!
.	.	.	.	.	.	.	.	.	8c/	-mi-	.
!LO:LB:g=original	!	!	!	!	!	!	!	!	!	!	!
=56-	=56-	=56-	=56-	=56-	=56-	=56-	=56-	=56-	=56-	=56-	=56-
!	!	!	!	!	!	!	!LO:TX:b:t=2	!	!	!	!
2BB-/	.	.	1.r	.	1.r	.	1.r	.	4d\	-núm	.
*	*	*	*	*	*	*	*	*	*	*ij	*
.	.	.	.	.	.	.	.	.	4b-\	laú-	.
2C/	6-	.	.	.	.	.	.	.	4a-X\	-da-	.
.	.	.	.	.	.	.	.	.	4g\	-bo	.
!LO:TX:t=P:problem:kreska pseudotaktowa	!	!	!	!	!	!	!	!	!	!	!
2D/	.	.	.	.	.	.	.	.	4.f\	do-	.
!	!	!	!	!	!	!	!	!	!LO:TX:t=P:problem:kreska pseudotaktowa	!	!
.	.	.	.	.	.	.	.	.	8f\	-mi-	.
=57-	=57-	=57-	=57-	=57-	=57-	=57-	=57-	=57-	=57-	=57-	=57-
!	!	!	!	!	!	!	!LO:TX:t=P:problem:kreska pseudotaktowa	!	!	!	!
!	!	!	!	!	!	!	!LO:SIC:v:t=custos e	!	!	!	!
2.E-X\	.	.	1.r	.	1.r	.	1.r	.	4g\	-núm	.
*	*	*	*	*	*	*	*	*	*	*Xij	*
.	.	.	.	.	.	.	.	.	4any\	in	.
.	.	.	.	.	.	.	.	.	4b-\	vi-	.
4A-X\	6	.	.	.	.	.	.	.	4f\	-ta	.
!LO:TX:t=P:problem:kreska pseudotaktowa	!	!	!	!	!	!	!	!	!LO:TX:t=P:problem:kreska pseudotaktowa	!	!
2B-\	.	.	.	.	.	.	.	.	2f\	me-	.
!	!	!	!	!	!	!	!LO:LB:g=original	!	!	!	!
=58-	=58-	=58-	=58-	=58-	=58-	=58-	=58-	=58-	=58-	=58-	=58-
2E-X\	.	.	1.r	.	1.r	.	4r	.	4e-X\	-a,	.
.	.	.	.	.	.	.	4e-X\	Laú-	4g\	Laú-	.
2F\	6:5	.	.	.	.	.	4d\	-da-	4f\	-da-	.
.	.	.	.	.	.	.	4c\	-bo	4e-X\	-bo	.
!LO:TX:t=P:problem:kreska pseudotaktowa	!	!	!	!	!	!	!	!	!	!	!
2G\	4#r	.	.	.	.	.	4.c\	do-	4.d\	do-	.
!	!	!	!	!	!	!	!LO:TX:t=P:problem:kreska pseudotaktowa	!	!	!	!
!	!	!	!	!	!	!	!LO:N:acc=#	!	!LO:TX:t=P:problem:kreska pseudotaktowa	!	!
.	.	.	.	.	.	.	8Bn\	-mi-	8d\	-mi-	.
=59-	=59-	=59-	=59-	=59-	=59-	=59-	=59-	=59-	=59-	=59-	=59-
4C/	-	.	1.r	.	1.r	.	4c\	-núm	4e-X\	-núm	.
4D/	.	.	.	.	.	.	4c\	in	4f\	in	.
4E-X\	6	.	.	.	.	.	4c\	vi-	4g\	vi-	.
!	!	!	!	!	!	!	!	!	!LO:SIC:v:t=custos d	!	!
4F\	.	.	.	.	.	.	4c\	-ta	4d\	-ta	.
!	!	!	!	!	!	!	!	!	!LO:LB:g=original	!	!
!	!	!	!	!	!	!	!	!	!LO:TX:t=P:problem:kreska pseudotaktowa	!	!
4G\	.	.	.	.	.	.	(4.c\	me-	2d\	me-	.
!LO:TX:t=P:problem:kreska pseudotaktowa	!	!	!	!	!	!	!	!	!	!	!
4GG/	4:3 #	.	.	.	.	.	.	.	.	.	.
!	!	!	!	!	!	!	!LO:TX:t=P:problem:kreska pseudotaktowa	!	!	!	!
!	!	!	!	!	!	!	!LO:N:acc=#	!	!	!	!
.	.	.	.	.	.	.	8Bn\)	.	.	.	.
=60-	=60-	=60-	=60-	=60-	=60-	=60-	=60-	=60-	=60-	=60-	=60-
!	!	!LO:DY:b:t=Pian	!LO:TX:t=P:problem:kreska pseudotaktowa	!	!	!	!	!	!	!	!LO:DY:b:t=Piano
4C/	-	p	1.r	.	1.r	.	2c\	-a	4e-X\	-a	p
4D/	.	.	.	.	.	.	.	.	4f\	in	.
4E-X\	6	.	.	.	.	.	2r	.	4g\	vi-	.
4F\	.	.	.	.	.	.	.	.	4d\	-ta	.
!	!	!	!	!	!	!	!	!	!LO:TX:t=P:problem:kreska pseudotaktowa	!	!
4G\	.	.	.	.	.	.	2r	.	2d\	me-	.
!LO:TX:t=P:problem:kreska pseudotaktowa	!	!	!	!	!	!	!	!	!	!	!
4GG/	4:3 #	.	.	.	.	.	.	.	.	.	.
!	!	!	!LO:LB:g=original	!	!	!	!	!	!	!	!
=61-	=61-	=61-	=61-	=61-	=61-	=61-	=61-	=61-	=61-	=61-	=61-
!	!	!	!	!	!	!	!LO:TX:b:t=27 (28)	!	!	!	!
2C/	.	.	4r	.	1.r	.	1.r	.	2c/	-a	.
.	.	.	4cc\	.	.	.	.	.	.	.	.
2D/	6	.	4b-/	.	.	.	.	.	2r	.	.
.	.	.	4a/	.	.	.	.	.	.	.	.
2Eny\	.	.	4.g/	.	.	.	.	.	2r	.	.
!	!	!	!LO:TX:t=P:problem:kreska pseudotaktowa	!	!	!	!	!	!	!	!
.	.	.	8g/	.	.	.	.	.	.	.	.
!	!	!	!	!	!LO:LB:g=original	!	!	!	!	!	!
=62-	=62-	=62-	=62-	=62-	=62-	=62-	=62-	=62-	=62-	=62-	=62-
!	!	!	!	!	!	!	!	!	!LO:TX:a:t=8	!	!
2F\	.	.	2a/	.	4r	.	1.r	.	1.r	.	.
.	.	.	.	.	4ff\	.	.	.	.	.	.
2G\	6-	.	2b-/	.	4ee-X\	.	.	.	.	.	.
.	.	.	.	.	4dd\	.	.	.	.	.	.
!LO:TX:t=P:problem:kreska pseudotaktowa	!	!	!	!	!	!	!	!	!	!	!
!LO:SIC:v:t=custos BB	!	!	!	!	!	!	!	!	!	!	!
2Any\	.	.	4f/	.	4.cc\	.	.	.	.	.	.
!	!	!	!LO:TX:t=P:problem:kreska pseudotaktowa	!	!	!	!	!	!	!	!
.	.	.	4e-X/	.	.	.	.	.	.	.	.
!	!	!	!	!	!LO:TX:t=P:problem:kreska pseudotaktowa	!	!	!	!	!	!
.	.	.	.	.	8cc\	.	.	.	.	.	.
!LO:LB:g=original	!	!	!	!	!	!	!	!	!	!	!
=63-	=63-	=63-	=63-	=63-	=63-	=63-	=63-	=63-	=63-	=63-	=63-
!	!	!LO:DY:b:t=F.	!	!	!	!	!	!	!	!	!
4BB-/	.	f	2d/	.	4dd\	.	1.r	.	1.r	.	.
4C/	.	.	.	.	4eeny\	.	.	.	.	.	.
4D/	6	.	4b-/	.	4ff\	.	.	.	.	.	.
4E-X\	.	.	4b-/	.	4cc\	.	.	.	.	.	.
4F\	.	.	4.b-/	.	4.cc\	.	.	.	.	.	.
!LO:TX:t=P:problem:kreska pseudotaktowa	!	!	!	!	!	!	!	!	!	!	!
4FF/	4:3	.	.	.	.	.	.	.	.	.	.
!	!	!	!LO:TX:t=P:problem:kreska pseudotaktowa	!	!LO:TX:t=P:problem:kreska pseudotaktowa	!	!	!	!	!	!
.	.	.	8a/	.	8cc\	.	.	.	.	.	.
=64-	=64-	=64-	=64-	=64-	=64-	=64-	=64-	=64-	=64-	=64-	=64-
!	!	!LO:DY:b:t=P.	!	!LO:DY:b:t=Pian.	!	!LO:DY:b:t=Piano	!	!	!	!	!
4BB-/	.	p	4b-/	p	4dd\	p	1.r	.	1.r	.	.
4C/	.	.	4b-/	.	4ee\	.	.	.	.	.	.
4D/	6	.	4b-/	.	4ff\	.	.	.	.	.	.
4E-X\	.	.	4b-/	.	4cc\	.	.	.	.	.	.
4F\	4:3	.	4.b-/	.	4.cc\	.	.	.	.	.	.
!LO:TX:t=P:problem:kreska pseudotaktowa	!	!	!	!	!	!	!	!	!	!	!
4FF/	.	.	.	.	.	.	.	.	.	.	.
!	!	!	!LO:TX:t=P:problem:kreska pseudotaktowa	!	!LO:TX:t=P:problem:kreska pseudotaktowa	!	!	!	!	!	!
.	.	.	8a/	.	8cc\	.	.	.	.	.	.
=65-	=65-	=65-	=65-	=65-	=65-	=65-	=65-	=65-	=65-	=65-	=65-
!	!	!	!	!LO:DY:b:t=Fort&colon;	!	!LO:DY:b:t=Fort.	!	!	!	!	!
2BB-/	.	.	4b-/	f	4b-/	f	1.r	.	1.r	.	.
.	.	.	4b-/	.	4dd\	.	.	.	.	.	.
!	!	!LO:DY:b:t=F.	!	!	!	!	!	!	!	!	!
2C/	6:5	f	4a/	.	4cc\	.	.	.	.	.	.
.	.	.	4g/	.	4b-/	.	.	.	.	.	.
!LO:TX:t=P:problem:kreska pseudotaktowa	!	!	!	!	!	!	!	!	!	!	!
2D/	4#r	.	4.g/	.	4.a/	.	.	.	.	.	.
!	!	!	!LO:TX:t=P:problem:kreska pseudotaktowa	!	!	!	!	!	!	!	!
!	!	!	!LO:SIC:v:t=custos g	!	!LO:TX:t=P:problem:kreska pseudotaktowa	!	!	!	!	!	!
.	.	.	8f#X/	.	8a/	.	.	.	.	.	.
!	!	!	!LO:LB:g=original	!	!	!	!	!	!	!	!
=66-	=66-	=66-	=66-	=66-	=66-	=66-	=66-	=66-	=66-	=66-	=66-
!	!	!	!	!LO:DY:b:t=[[Piano]]	!	!LO:DY:b:t=Pian	!	!	!	!	!
4GG/	.	.	4g/	p	4b-/	p	1.r	.	1.r	.	.
4AA/	.	.	4g/	.	4cc\	.	.	.	.	.	.
4BB-/	6	.	4g/	.	4dd\	.	.	.	.	.	.
4C/	.	.	4g/	.	4b-/	.	.	.	.	.	.
4D/	.	.	4.g/	.	4.a/	.	.	.	.	.	.
!LO:TX:t=P:problem:kreska pseudotaktowa	!	!	!	!	!	!	!	!	!	!	!
4DD/	4:3 #	.	.	.	.	.	.	.	.	.	.
!	!	!	!LO:TX:t=P:problem:kreska pseudotaktowa	!	!LO:TX:t=P:problem:kreska pseudotaktowa	!	!	!	!	!	!
.	.	.	8f#X/	.	8a/	.	.	.	.	.	.
=67-	=67-	=67-	=67-	=67-	=67-	=67-	=67-	=67-	=67-	=67-	=67-
!	!	!	!	!LO:DY:b:t=Piano	!LO:TX:t=P:problem:powtórzony takt, ołówkiem "bis"	!LO:DY:b:t=Pian	!	!	!	!	!
4GG/	.	.	4g/	p	4b-/	p	1.r	.	1.r	.	.
!	!	!LO:DY:b:t=Piano	!	!	!	!	!	!	!	!	!
4AA/	.	p	4g/	.	4cc\	.	.	.	.	.	.
4BB-/	6	.	4g/	.	4dd\	.	.	.	.	.	.
4C/	.	.	4g/	.	4b-/	.	.	.	.	.	.
4D/	.	.	(4.g/	.	4.a/	.	.	.	.	.	.
!LO:TX:t=P:problem:kreska pseudotaktowa	!	!	!	!	!	!	!	!	!	!	!
4DD/	4#r	.	.	.	.	.	.	.	.	.	.
!	!	!	!	!	!LO:TX:t=P:problem:kreska pseudotaktowa	!	!	!	!	!	!
!	!	!	!LO:TX:t=P:problem:kreska pseudotaktowa	!	!LO:SIC:v:t=custos b	!	!	!	!	!	!
.	.	.	8f#X/)	.	8a/	.	.	.	.	.	.
!	!	!	!	!	!LO:LB:g=original	!	!	!	!	!	!
=68-	=68-	=68-	=68-	=68-	=68-	=68-	=68-	=68-	=68-	=68-	=68-
!	!	!	!	!LO:DY:b:t=F.	!	!	!	!	!	!	!
1G	.	.	4g/	f	4b-/	.	1.r	.	1.r	.	.
.	.	.	4a/	.	4cc\	.	.	.	.	.	.
.	.	.	4b-/	.	4dd\	.	.	.	.	.	.
.	.	.	4cc\	.	4ee\	.	.	.	.	.	.
!	!	!	!LO:TX:t=P:problem:kreska pseudotaktowa	!	!LO:TX:t=P:problem:kreska pseudotaktowa	!	!	!	!	!	!
2D/	.	.	2dd\	.	2ff\	.	.	.	.	.	.
=69-	=69-	=69-	=69-	=69-	=69-	=69-	=69-	=69-	=69-	=69-	=69-
!	!	!	!	!	!	!	!	!	!LO:TX:t=P:problem:kreska pseudotaktowa	!	!
2E-X\	6:5	.	4cc\	.	4ee-X\	.	1.r	.	1.r	.	.
.	.	.	4b-/	.	4dd\	.	.	.	.	.	.
2F\	.	.	2.b-/	.	2.cc\	.	.	.	.	.	.
!LO:TX:t=P:problem:kreska pseudotaktowa	!	!	!	!	!	!	!	!	!	!	!
!LO:SIC:v:t=custos BB	!	!	!	!	!	!	!	!	!	!	!
2FF/	4:3	.	.	.	.	.	.	.	.	.	.
!	!	!	!	!	!LO:TX:t=P:problem:kreska pseudotaktowa	!	!	!	!	!	!
.	.	.	4a/	.	4cc\	.	.	.	.	.	.
!LO:LB:g=original	!	!	!	!	!	!	!	!	!	!	!
=70-	=70-	=70-	=70-	=70-	=70-	=70-	=70-	=70-	=70-	=70-	=70-
1.BB-	.	.	2b-/	.	2dd\	.	1.r	.	2r	.	.
!	!	!	!LO:TX:a:t=11	!	!LO:TX:a:t=9	!	!	!	!	!	!
.	.	.	1r	.	1r	.	.	.	4B-y/	psal-	.
.	.	.	.	.	.	.	.	.	4c/	-lam	.
.	.	.	.	.	.	.	.	.	4d\	de-	.
!	!	!	!	!	!	!	!	!	!LO:TX:t=P:problem:kreska pseudotaktowa	!	!
.	.	.	.	.	.	.	.	.	4eny\	-o	.
=71-	=71-	=71-	=71-	=71-	=71-	=71-	=71-	=71-	=71-	=71-	=71-
1.AA	6	.	1.r	.	1.r	.	1.r	.	2f\	me-	.
.	.	.	.	.	.	.	.	.	4f\	-o	.
.	.	.	.	.	.	.	.	.	4f\	qúam	.
.	.	.	.	.	.	.	.	.	4g\	di-	.
!	!	!	!	!	!	!	!	!	!LO:TX:t=P:problem:kreska pseudotaktowa	!	!
.	.	.	.	.	.	.	.	.	4a\	.	.
=72-	=72-	=72-	=72-	=72-	=72-	=72-	=72-	=72-	=72-	=72-	=72-
!LO:TX:t=P:problem:kreska pseudotaktowa	!	!	!	!	!	!	!	!	!	!	!
1.GG	7:6	.	1.r	.	1.r	.	1.r	.	2.b-\	-ú	.
.	.	.	.	.	.	.	.	.	4b-\	fu-	.
.	.	.	.	.	.	.	.	.	4b-\	.	.
!	!	!	!	!	!	!	!	!	!LO:TX:t=P:problem:kreska pseudotaktowa	!	!
!	!	!	!	!	!	!	!	!	!LO:SIC:v:t=custos A	!	!
.	.	.	.	.	.	.	.	.	4g\	-e-	.
!	!	!	!	!	!	!	!	!	!LO:LB:g=original	!	!
=73-	=73-	=73-	=73-	=73-	=73-	=73-	=73-	=73-	=73-	=73-	=73-
*col	*	*	*	*	*	*	*	*	*	*	*
1FF	.	.	1.r	.	1.r	.	1.r	.	2a-X\	-ro	.
.	.	.	.	.	.	.	.	.	4r	.	.
.	.	.	.	.	.	.	.	.	4cc\	qúam	.
!	!	!	!	!	!	!	!	!	!LO:TX:t=P:problem:kreska pseudotaktowa	!	!
1BB-/	- 8:7 6:5	.	.	.	.	.	.	.	2b-\	di-	.
=74-	=74-	=74-	=74-	=74-	=74-	=74-	=74-	=74-	=74-	=74-	=74-
.	.	.	1.r	.	1.r	.	1.r	.	2a-X\	-e	.
!LO:TX:t=P:problem:kreska pseudotaktowa	!	!	!	!	!	!	!	!	!	!	!
1C	6:5 4:3	.	.	.	.	.	.	.	2.a-\	fu-	.
.	.	.	.	.	.	.	.	.	4g\	-e-	.
*Xcol	*	*	*	*	*	*	*	*	*	*	*
=75-	=75-	=75-	=75-	=75-	=75-	=75-	=75-	=75-	=75-	=75-	=75-
!	!	!	!	!	!	!	!	!	!LO:TX:t=P:problem:kreska pseudotaktowa	!	!
1.FF	-	.	1.r	.	1.r	.	1.r	.	1.f	-ro	.
=76-	=76-	=76-	=76-	=76-	=76-	=76-	=76-	=76-	=76-	=76-	=76-
!LO:TX:t=P:problem:kreska pseudotaktowa	!	!	!	!	!	!	!	!	!	!	!
1.F	-	.	1.r	.	1.r	.	1.r	.	2r	.	.
.	.	.	.	.	.	.	.	.	2a-X\	pasl-	.
!	!	!	!	!	!	!	!	!	!LO:TX:t=P:problem:kreska pseudotaktowa	!	!
.	.	.	.	.	.	.	.	.	2g\	-lam	.
=77-	=77-	=77-	=77-	=77-	=77-	=77-	=77-	=77-	=77-	=77-	=77-
1.B-	.	.	1.r	.	1.r	.	1.r	.	(2.f\	de-	.
.	.	.	.	.	.	.	.	.	4d\)	.	.
.	.	.	.	.	.	.	.	.	(4e\	-o	.
!	!	!	!	!	!	!	!	!	!LO:TX:t=P:problem:kreska pseudotaktowa	!	!
.	.	.	.	.	.	.	.	.	4f\)	.	.
=78-	=78-	=78-	=78-	=78-	=78-	=78-	=78-	=78-	=78-	=78-	=78-
1E-X	.	.	1.r	.	1.r	.	1.r	.	2g\	me-	.
.	.	.	.	.	.	.	.	.	2g\	-o	.
!LO:TX:t=P:problem:kreska pseudotaktowa	!	!	!	!	!	!	!	!	!LO:TX:t=P:problem:kreska pseudotaktowa	!	!
2E-\	.	.	.	.	.	.	.	.	(2g\	qúam	.
=79-	=79-	=79-	=79-	=79-	=79-	=79-	=79-	=79-	=79-	=79-	=79-
!	!	!	!	!	!LO:TX:t=P:problem:kreska pseudotaktowa	!	!	!	!	!	!
2.F\	.	.	1.r	.	1.r	.	1.r	.	1f)	.	.
4G\	.	.	.	.	.	.	.	.	.	.	.
!LO:TX:t=P:problem:kreska pseudotaktowa	!	!	!	!	!	!	!	!	!	!	!
2A-X\	.	.	.	.	.	.	.	.	2e-X\	di-	.
=80-	=80-	=80-	=80-	=80-	=80-	=80-	=80-	=80-	=80-	=80-	=80-
2F\	6 5	.	1.r	.	2r	.	1.r	.	2d\	.	.
!	!	!	!	!	!	!	!	!	!LO:TX:t=P:problem:kreska pseudotaktowa	!	!
2G\	.	.	.	.	2gg\	.	.	.	1d	-úe-	.
!	!	!	!	!	!LO:TX:t=P:problem:kreska pseudotaktowa	!	!	!	!	!	!
2GG/	4:3	.	.	.	2dd\	.	.	.	.	.	.
=81-	=81-	=81-	=81-	=81-	=81-	=81-	=81-	=81-	=81-	=81-	=81-
!LO:TX:t=P:problem:kreska pseudotaktowa	!	!	!LO:TX:t=P:problem:kreska pseudotaktowa	!	!	!	!	!	!	!	!
1.C	-	.	1.r	.	2.ee-X\	.	1.r	.	2c/	-ro	.
.	.	.	.	.	.	.	.	.	2r	.	.
.	.	.	.	.	4dd\	.	.	.	.	.	.
!	!	!	!	!	!	!	!	!	!LO:TX:t=P:problem:kreska pseudotaktowa	!	!
.	.	.	.	.	2cc\	.	.	.	2r	.	.
!	!	!	!	!	!	!	!	!	!LO:LB:g=original	!	!
=82-	=82-	=82-	=82-	=82-	=82-	=82-	=82-	=82-	=82-	=82-	=82-
2F\	.	.	2r	.	2cc\	.	1.r	.	1.r	.	.
!LO:TX:t=P:problem:kreska pseudotaktowa	!	!	!	!	!LO:TX:t=P:problem:kreska pseudotaktowa	!	!	!	!	!	!
!LO:SIC:v:t=custos C	!	!	!	!	!LO:N:acc=#	!	!	!	!	!	!
1G	#	.	2gg\	.	1bn	.	.	.	.	.	.
.	.	.	2dd\	.	.	.	.	.	.	.	.
!LO:LB:g=original	!	!	!	!	!	!	!	!	!	!	!
=83-	=83-	=83-	=83-	=83-	=83-	=83-	=83-	=83-	=83-	=83-	=83-
1.C	-	.	2.ee-X\	.	2.cc\	.	1.r	.	1.r	.	.
.	.	.	4dd\	.	4dd\	.	.	.	.	.	.
!	!	!	!LO:TX:t=P:problem:kreska pseudotaktowa	!	!	!	!	!	!	!	!
!	!	!	!LO:SIC:v:t=custos cc	!	!	!	!	!	!	!	!
.	.	.	2cc\	.	2ee-X\	.	.	.	.	.	.
!	!	!	!LO:LB:g=original	!	!	!	!	!	!	!	!
=84-	=84-	=84-	=84-	=84-	=84-	=84-	=84-	=84-	=84-	=84-	=84-
2F\	6 5	.	2cc\	.	1dd	.	1.r	.	2r	.	.
!LO:TX:t=P:problem:kreska pseudotaktowa	!	!	!LO:N:acc=#	!	!	!	!	!	!	!	!
1G	#	.	1bn	.	.	.	.	.	2g\	Laú-	.
!	!	!	!	!	!LO:TX:t=P:problem:kreska pseudotaktowa	!	!	!	!	!	!
!	!	!	!	!	!LO:SIC:v:t=custos gg	!	!	!	!LO:TX:t=P:problem:kreska pseudotaktowa	!	!
.	.	.	.	.	2gg\	.	.	.	2d\	-da	.
!	!	!	!	!	!LO:LB:g=original	!	!	!	!	!	!
=85-	=85-	=85-	=85-	=85-	=85-	=85-	=85-	=85-	=85-	=85-	=85-
1.C	-	.	2.cc\	.	1gg	.	1.r	.	2.e-X\	a-	.
.	.	.	4dd\	.	.	.	.	.	4d\	-ni-	.
!	!	!	!LO:TX:t=P:problem:kreska pseudotaktowa	!	!	!	!	!	!	!	!
.	.	.	2ee-X\	.	2gg\	.	.	.	2c/	-ma	.
=86-	=86-	=86-	=86-	=86-	=86-	=86-	=86-	=86-	=86-	=86-	=86-
2F\	6 5	.	1dd	.	2ff\	.	1.r	.	2c/	me-	.
!	!	!	!	!	!	!	!	!	!LO:TX:t=P:problem:kreska pseudotaktowa	!	!
!LO:TX:t=P:problem:kreska pseudotaktowa	!	!	!	!	!LO:TX:t=P:problem:kreska pseudotaktowa	!	!	!	!LO:N:acc=#	!	!
1G	.	.	.	.	1dd	.	.	.	1Bn	-a	.
.	.	.	2gg\	.	.	.	.	.	.	.	.
=87-	=87-	=87-	=87-	=87-	=87-	=87-	=87-	=87-	=87-	=87-	=87-
1.A-X	7:6	.	1gg	.	1cc	.	1.r	.	1c	do-	.
.	.	.	2ff\	.	2cc\	.	.	.	2c/	-mi-	.
=88-	=88-	=88-	=88-	=88-	=88-	=88-	=88-	=88-	=88-	=88-	=88-
!	!	!	!	!	!	!	!	!	!LO:TX:t=P:problem:kreska pseudotaktowa	!	!
!LO:TX:t=P:problem:kreska pseudotaktowa	!	!	!LO:TX:t=P:problem:kreska pseudotaktowa	!	!LO:TX:t=P:problem:kreska pseudotaktowa	!	!LO:TX:t=P:problem:kreska pseudotaktowa	!	!LO:N:acc=#	!	!
1.G	#	.	1.gg	.	1.dd	.	1.r	.	1.Bn	-núm	.
=89-	=89-	=89-	=89-	=89-	=89-	=89-	=89-	=89-	=89-	=89-	=89-
2r	.	.	2ee--\	.	2r	.	2r	.	2r	.	.
2E-X\	.	.	2ee--\	.	2b-y/	.	2e-X\	laú-	2g\	laú-	.
2A-X\	.	.	2ee--\	.	2cc\	.	2e-\	-da	2f\	-da	.
=90-	=90-	=90-	=90-	=90-	=90-	=90-	=90-	=90-	=90-	=90-	=90-
!	!	!	!LO:TX:t=P:problem:kreska pseudotaktowa	!	!	!	!	!	!	!	!
!	!	!	!LO:N:vis=1	!	!LO:TX:t=P:problem:kreska pseudotaktowa	!	!	!	!LO:TX:t=P:problem:kreska pseudotaktowa	!	!
2B-\	.	.	1.ff	.	1.b-	.	(1e-X	laú-	1.f	laú-	.
!LO:TX:t=P:problem:kreska pseudotaktowa	!	!	!	!	!	!	!	!	!	!	!
1BB-	4:3	.	.	.	.	.	.	.	.	.	.
.	.	.	.	.	.	.	2d\)	.	.	.	.
=91-	=91-	=91-	=91-	=91-	=91-	=91-	=91-	=91-	=91-	=91-	=91-
2E-X\	.	.	1gg	.	1b-	.	2e-X\	-da	2e-X\	-da	.
2E-\	.	.	.	.	.	.	2r	.	2g\	lau-	.
!LO:N:acc=#	!	!	!	!	!LO:N:acc=#	!	!LO:TX:t=P:problem:kreska pseudotaktowa	!	!	!	!
2BBn/	6	.	2gg\	.	2bn/	.	2r	.	2d\	-da	.
!	!	!	!	!	!	!	!LO:LB:g=original	!	!	!	!
=92-	=92-	=92-	=92-	=92-	=92-	=92-	=92-	=92-	=92-	=92-	=92-
!	!	!	!	!	!	!	!	!	!LO:TX:t=P:problem:kreska pseudotaktowa	!	!
!LO:TX:t=P:problem:kreska pseudotaktowa	!	!	!LO:TX:t=P:problem:kreska pseudotaktowa	!	!	!	!	!	!LO:SIC:v:t=custos e	!	!
1.C	-	.	1.gg	.	1g	.	2r	.	1.e-X	a-	.
.	.	.	.	.	.	.	2c\	Laú-	.	.	.
!	!	!	!	!	!LO:TX:t=P:problem:kreska pseudotaktowa	!	!	!	!	!	!
.	.	.	.	.	2cc\	.	2G/	-da	.	.	.
!	!	!	!	!	!	!	!	!	!LO:LB:g=original	!	!
=93-	=93-	=93-	=93-	=93-	=93-	=93-	=93-	=93-	=93-	=93-	=93-
1.F	7:6	.	1.ff	.	(2a/	.	2.A/	a-	2e-X\	-ni-	.
!	!	!	!	!	!	!	!	!	!LO:TX:t=P:problem:kreska pseudotaktowa	!	!
.	.	.	.	.	2a/)	.	.	.	1d	-ma	.
.	.	.	.	.	.	.	4B-\	-ni-	.	.	.
!	!	!	!	!	!LO:TX:t=P:problem:kreska pseudotaktowa	!	!LO:TX:t=P:problem:kreska pseudotaktowa	!	!	!	!
.	.	.	.	.	2a/	.	2c\	-ma	.	.	.
=94-	=94-	=94-	=94-	=94-	=94-	=94-	=94-	=94-	=94-	=94-	=94-
*col	*	*	*	*	*col	*	*col	*	*col	*	*
!	!	!	!LO:TX:t=P:problem:kreska pseudotaktowa	!	!	!	!LO:N:acc=#	!	!	!	!
1G	#	.	1.dd	.	1g	.	1Bn	me-	1d	me-	.
1F#X\	6	.	.	.	1a/	.	1c\	-a	1d\	-a	.
*	*	*	*	*	*Xcol	*	*Xcol	*	*Xcol	*	*
=95-	=95-	=95-	=95-	=95-	=95-	=95-	=95-	=95-	=95-	=95-	=95-
.	.	.	2r	.	.	.	.	.	.	.	.
!LO:TX:t=P:problem:kreska pseudotaktowa	!	!	!	!	!	!	!	!	!	!	!
!LO:SIC:v:t=custos C	!	!	!	!	!	!	!	!	!	!	!
1G	4#r	.	2.gg\	.	2.g/	.	2.c\	do-	2.d\	do-	.
!	!	!	!	!	!	!	!LO:N:acc=#	!	!LO:TX:t=P:problem:kreska pseudotaktowa	!	!
!	!	!	!	!	!LO:TX:t=P:problem:kreska pseudotaktowa	!	!LO:TX:t=P:problem:kreska pseudotaktowa	!	!	!	!
.	.	.	4gg\	.	4g/	.	4Bn\	-mi-	4c/	-mi-	.
*Xcol	*	*	*	*	*	*	*	*	*	*	*
!LO:LB:g=original	!	!	!	!	!	!	!	!	!	!	!
=96-	=96-	=96-	=96-	=96-	=96-	=96-	=96-	=96-	=96-	=96-	=96-
1C	-	.	2ee-\	.	2g/	.	2c\	-núm	2c/	-núm	.
.	.	.	2r	.	2ff\	.	2r	.	2r	.	.
!LO:N:acc=#	!	!	!	!	!	!	!	!	!	!	!
2BBn/	6	.	2r	.	2dd\	.	2r	.	2r	.	.
=97-	=97-	=97-	=97-	=97-	=97-	=97-	=97-	=97-	=97-	=97-	=97-
!LO:TX:t=P:problem:kreska pseudotaktowa	!	!	!	!	!	!	!LO:TX:a:t=7	!	!LO:TX:b:t=7	!	!
1.C	-	.	1.r	.	2.ee-X\	.	1.r	.	1.r	.	.
.	.	.	.	.	4dd\	.	.	.	.	.	.
!	!	!	!	!	!LO:TX:t=P:problem:kreska pseudotaktowa	!	!	!	!	!	!
!	!	!	!	!	!LO:SIC:v:t=custos cc	!	!	!	!	!	!
.	.	.	.	.	2cc\	.	.	.	.	.	.
!	!	!	!	!	!LO:LB:g=original	!	!	!	!	!	!
=98-	=98-	=98-	=98-	=98-	=98-	=98-	=98-	=98-	=98-	=98-	=98-
2Fny\	.	.	2r	.	2cc\	.	1.r	.	1.r	.	.
!	!	!	!	!	!LO:N:acc=#	!	!	!	!	!	!
1G	#	.	2gg\	.	1bn	.	.	.	.	.	.
!	!	!	!LO:TX:t=P:problem:kreska pseudotaktowa	!	!	!	!	!	!	!	!
.	.	.	2dd\	.	.	.	.	.	.	.	.
!	!	!	!LO:LB:g=original	!	!	!	!	!	!	!	!
=99-	=99-	=99-	=99-	=99-	=99-	=99-	=99-	=99-	=99-	=99-	=99-
!LO:TX:t=P:problem:kreska pseudotaktowa	!	!	!	!	!	!	!	!	!	!	!
1.C	-	.	2.ee-X\	.	2.cc\	.	1.r	.	1.r	.	.
.	.	.	4dd\	.	4dd\	.	.	.	.	.	.
!	!	!	!	!	!LO:TX:t=P:problem:kreska pseudotaktowa	!	!	!	!	!	!
.	.	.	2cc\	.	2ee-X\	.	.	.	.	.	.
=100-	=100-	=100-	=100-	=100-	=100-	=100-	=100-	=100-	=100-	=100-	=100-
2F\	.	.	2cc\	.	2r	.	1.r	.	1.r	.	.
!	!	!	!LO:TX:t=P:problem:kreska pseudotaktowa	!	!	!	!	!	!	!	!
!	!	!	!LO:N:acc=#	!	!	!	!	!	!	!	!
1G	#	.	1bn	.	2gg\	.	.	.	.	.	.
.	.	.	.	.	2dd\	.	.	.	.	.	.
=101-	=101-	=101-	=101-	=101-	=101-	=101-	=101-	=101-	=101-	=101-	=101-
!LO:TX:t=P:problem:kreska pseudotaktowa	!	!	!	!	!	!	!	!	!	!	!
1.C	-	.	2.cc\	.	2.ee-X\	.	1.r	.	1.r	.	.
.	.	.	4dd\	.	4dd\	.	.	.	.	.	.
!	!	!	!	!	!LO:TX:t=P:problem:kreska pseudotaktowa	!	!	!	!	!	!
.	.	.	2ee-X\	.	2cc\	.	.	.	.	.	.
=102-	=102-	=102-	=102-	=102-	=102-	=102-	=102-	=102-	=102-	=102-	=102-
2F\	6 5	.	1.dd	.	1cc	.	1.r	.	1.r	.	.
2G\	4:3 #	.	.	.	.	.	.	.	.	.	.
!	!	!	!	!	!LO:N:acc=#	!	!	!	!	!	!
2GG/	.	.	.	.	2bn/	.	.	.	.	.	.
=103-	=103-	=103-	=103-	=103-	=103-	=103-	=103-	=103-	=103-	=103-	=103-
2C/	.	.	2cc\	.	2cc\	.	1.r	.	1.r	.	.
2r	.	.	2r	.	2r	.	.	.	.	.	.
!	!	!	!LO:TX:t=P:problem:kreska pseudotaktowa	!	!	!	!	!	!	!	!
2r	.	.	2r	.	2r	.	.	.	.	.	.
=104-	=104-	=104-	=104-	=104-	=104-	=104-	=104-	=104-	=104-	=104-	=104-
*M2/1	*	*	*M2/1	*	*M2/1	*	*M2/1	*	*M2/1	*	*
*met(C|)	*	*	*met(C|)	*	*met(C|)	*	*met(C|)	*	*met(C|)	*	*
2C/	.	.	2cc\	.	2g/	.	4r	.	4r	.	.
.	.	.	.	.	.	.	2c\	Laú-	4eny\	Laú-	.
!	!	!	!	!	!	!	!	!	!LO:TX:t=P:problem:kreska pseudotaktowa	!	!
2F\	-	.	4.cc\	.	4.a-X/	.	.	.	2f\	-da	.
.	.	.	.	.	.	.	4c\	-da	.	.	.
!	!	!	!LO:TX:t=P:problem:kreska pseudotaktowa	!	!LO:TX:t=P:problem:kreska pseudotaktowa	!	!	!	!	!	!
.	.	.	8cc\	.	8b-y/	.	.	.	.	.	.
2F\	6:5	.	4eeny\	.	4.cc\	.	2.c\	do-	2.g\	Laú-	.
.	.	.	4gg\	.	.	.	.	.	.	.	.
.	.	.	.	.	8b-/	.	.	.	.	.	.
2F\	-	.	2cc\	.	4.a-X/	.	.	.	.	.	.
.	.	.	.	.	.	.	4c\	-mi-	4f\	-da	.
.	.	.	.	.	16g/LL	.	.	.	.	.	.
.	.	.	.	.	16f/JJ	.	.	.	.	.	.
=105-	=105-	=105-	=105-	=105-	=105-	=105-	=105-	=105-	=105-	=105-	=105-
00;;C	.	.	00;;cc	.	00;;g	.	00c;;	-núm	2f\	do-	.
.	.	.	.	.	.	.	.	.	(4e\	-mi-	.
.	.	.	.	.	.	.	.	.	4d\)	.	.
!	!	!	!	!	!	!	!	!	!LO:N:vis=00	!	!
.	.	.	.	.	.	.	.	.	0.e;	-núm	.
=106-	=106-	=106-	=106-	=106-	=106-	=106-	=106-	=106-	=106-	=106-	=106-
.	.	.	.	.	.	.	.	.	.	.	.
=-	=-	=-	=-	=-	=-	=-	=-	=-	=-	=-	=-
*-	*-	*-	*-	*-	*-	*-	*-	*-	*-	*-	*-
!!!system-decoration: [(s1,s2)][(s3,s4,s5)]
!!!RDF**kern: N = link
!!!ENC: Berenika Jozajtis
!!!END: 2022-01-26
!!!ENC: Urszula Świątek
!!!END: 2022-01-30
!!!YEC: Copyright 2022 Narodowy Instytut Fryderyka Chopina (https://polishscores.org)
!!!YEM: License CC-BY-4.0 (https://creativecommons.org/licenses/by/4.0)
